(Generated by PartKam Version 0.05)

G21 G90 G40

(profile 1)
G0 Z15
T0 M6
G17
M3
G0 X8.15786802030457 Y45.49873096446701
G1 Z-1.5 F800
G3 X4.713197969543147 Y41.33502538071066 I20.299492385786802 J-20.299492385786802 F1500
G3 X2.3223350253807107 Y36.90355329949239 I20.428934010152282 J-13.883248730964468
G3 X0.8807106598984772 Y32.078680203045685 I22.81979695431472 J-9.451776649746193
G3 X0.37055837563451777 Y26.700507614213194 I28.2005076142132 J-5.378172588832487
G3 X0.8807106598984772 Y21.32233502538071 I28.70812182741117 J0
G3 X2.3223350253807107 Y16.49746192893401 I24.263959390862944 J4.626903553299492
G3 X4.713197969543147 Y12.065989847715738 I22.81979695431472 J9.451776649746193
G3 X8.157360406091371 Y7.901015228426395 I23.743654822335024 J16.13705583756345
G3 X12.319796954314722 Y4.456852791878172 I20.299492385786802 J20.299492385786802
G3 X16.753807106598984 Y2.065989847715736 I13.883248730964468 J20.428934010152282
G3 X21.576142131979697 Y0.6243654822335025 I9.451776649746193 J22.81979695431472
G3 X26.956852791878173 Y0.11421319796954314 I5.378172588832487 J28.2005076142132
G3 X32.33502538071066 Y0.6243654822335025 I0 J28.70812182741117
G3 X37.15989847715736 Y2.065989847715736 I-4.626903553299492 J24.263959390862944
G3 X41.59137055837563 Y4.456852791878172 I-9.451776649746193 J22.81979695431472
G3 X45.753807106598984 Y7.901015228426395 I-16.13705583756345 J23.743654822335024
G3 X49.1979695431472 Y12.065989847715738 I-20.299492385786802 J20.299492385786802
G3 X51.59137055837563 Y16.49746192893401 I-20.428934010152282 J13.883248730964468
G3 X53.03299492385787 Y21.32233502538071 I-22.81979695431472 J9.451776649746193
G3 X53.54060913705584 Y26.700507614213194 I-28.2005076142132 J5.378172588832487
G3 X53.03299492385787 Y32.078680203045685 I-28.70812182741117 J0
G3 X51.59137055837563 Y36.90355329949239 I-24.263959390862944 J-4.626903553299492
G3 X49.1979695431472 Y41.33502538071066 I-22.81979695431472 J-9.451776649746193
G3 X45.753807106598984 Y45.5 I-23.743654822335024 J-16.13705583756345
G3 X41.59137055837563 Y48.94162436548223 I-20.299492385786802 J-20.299492385786802
G3 X37.15989847715736 Y51.33502538071066 I-13.883248730964468 J-20.428934010152282
G3 X32.33502538071066 Y52.77664974619289 I-9.451776649746193 J-22.81979695431472
G3 X26.956852791878173 Y53.28426395939086 I-5.378172588832487 J-28.2005076142132
G3 X21.576142131979697 Y52.77664974619289 I0 J-28.70812182741117
G3 X16.753807106598984 Y51.33502538071066 I4.626903553299492 J-24.263959390862944
G3 X12.319796954314722 Y48.94162436548223 I9.451776649746193 J-22.81979695431472
G3 X8.157360406091371 Y45.5 I16.13705583756345 J-23.743654822335024
G1 Z-3 F800
G3 X4.713197969543147 Y41.33502538071066 I20.299492385786802 J-20.299492385786802 F1500
G3 X2.3223350253807107 Y36.90355329949239 I20.428934010152282 J-13.883248730964468
G3 X0.8807106598984772 Y32.078680203045685 I22.81979695431472 J-9.451776649746193
G3 X0.37055837563451777 Y26.700507614213194 I28.2005076142132 J-5.378172588832487
G3 X0.8807106598984772 Y21.32233502538071 I28.70812182741117 J0
G3 X2.3223350253807107 Y16.49746192893401 I24.263959390862944 J4.626903553299492
G3 X4.713197969543147 Y12.065989847715738 I22.81979695431472 J9.451776649746193
G3 X8.157360406091371 Y7.901015228426395 I23.743654822335024 J16.13705583756345
G3 X12.319796954314722 Y4.456852791878172 I20.299492385786802 J20.299492385786802
G3 X16.753807106598984 Y2.065989847715736 I13.883248730964468 J20.428934010152282
G3 X21.576142131979697 Y0.6243654822335025 I9.451776649746193 J22.81979695431472
G3 X26.956852791878173 Y0.11421319796954314 I5.378172588832487 J28.2005076142132
G3 X32.33502538071066 Y0.6243654822335025 I0 J28.70812182741117
G3 X37.15989847715736 Y2.065989847715736 I-4.626903553299492 J24.263959390862944
G3 X41.59137055837563 Y4.456852791878172 I-9.451776649746193 J22.81979695431472
G3 X45.753807106598984 Y7.901015228426395 I-16.13705583756345 J23.743654822335024
G3 X49.1979695431472 Y12.065989847715738 I-20.299492385786802 J20.299492385786802
G3 X51.59137055837563 Y16.49746192893401 I-20.428934010152282 J13.883248730964468
G3 X53.03299492385787 Y21.32233502538071 I-22.81979695431472 J9.451776649746193
G3 X53.54060913705584 Y26.700507614213194 I-28.2005076142132 J5.378172588832487
G3 X53.03299492385787 Y32.078680203045685 I-28.70812182741117 J0
G3 X51.59137055837563 Y36.90355329949239 I-24.263959390862944 J-4.626903553299492
G3 X49.1979695431472 Y41.33502538071066 I-22.81979695431472 J-9.451776649746193
G3 X45.753807106598984 Y45.5 I-23.743654822335024 J-16.13705583756345
G3 X41.59137055837563 Y48.94162436548223 I-20.299492385786802 J-20.299492385786802
G3 X37.15989847715736 Y51.33502538071066 I-13.883248730964468 J-20.428934010152282
G3 X32.33502538071066 Y52.77664974619289 I-9.451776649746193 J-22.81979695431472
G3 X26.956852791878173 Y53.28426395939086 I-5.378172588832487 J-28.2005076142132
G3 X21.576142131979697 Y52.77664974619289 I0 J-28.70812182741117
G3 X16.753807106598984 Y51.33502538071066 I4.626903553299492 J-24.263959390862944
G3 X12.319796954314722 Y48.94162436548223 I9.451776649746193 J-22.81979695431472
G3 X8.157360406091371 Y45.5 I16.13705583756345 J-23.743654822335024
G1 Z-4.5 F800
G3 X4.713197969543147 Y41.33502538071066 I20.299492385786802 J-20.299492385786802 F1500
G3 X2.3223350253807107 Y36.90355329949239 I20.428934010152282 J-13.883248730964468
G3 X0.8807106598984772 Y32.078680203045685 I22.81979695431472 J-9.451776649746193
G3 X0.37055837563451777 Y26.700507614213194 I28.2005076142132 J-5.378172588832487
G3 X0.8807106598984772 Y21.32233502538071 I28.70812182741117 J0
G3 X2.3223350253807107 Y16.49746192893401 I24.263959390862944 J4.626903553299492
G3 X4.713197969543147 Y12.065989847715738 I22.81979695431472 J9.451776649746193
G3 X8.157360406091371 Y7.901015228426395 I23.743654822335024 J16.13705583756345
G3 X12.319796954314722 Y4.456852791878172 I20.299492385786802 J20.299492385786802
G3 X16.753807106598984 Y2.065989847715736 I13.883248730964468 J20.428934010152282
G3 X21.576142131979697 Y0.6243654822335025 I9.451776649746193 J22.81979695431472
G3 X26.956852791878173 Y0.11421319796954314 I5.378172588832487 J28.2005076142132
G3 X32.33502538071066 Y0.6243654822335025 I0 J28.70812182741117
G3 X37.15989847715736 Y2.065989847715736 I-4.626903553299492 J24.263959390862944
G3 X41.59137055837563 Y4.456852791878172 I-9.451776649746193 J22.81979695431472
G3 X45.753807106598984 Y7.901015228426395 I-16.13705583756345 J23.743654822335024
G3 X49.1979695431472 Y12.065989847715738 I-20.299492385786802 J20.299492385786802
G3 X51.59137055837563 Y16.49746192893401 I-20.428934010152282 J13.883248730964468
G3 X53.03299492385787 Y21.32233502538071 I-22.81979695431472 J9.451776649746193
G3 X53.54060913705584 Y26.700507614213194 I-28.2005076142132 J5.378172588832487
G3 X53.03299492385787 Y32.078680203045685 I-28.70812182741117 J0
G3 X51.59137055837563 Y36.90355329949239 I-24.263959390862944 J-4.626903553299492
G3 X49.1979695431472 Y41.33502538071066 I-22.81979695431472 J-9.451776649746193
G3 X45.753807106598984 Y45.5 I-23.743654822335024 J-16.13705583756345
G3 X41.59137055837563 Y48.94162436548223 I-20.299492385786802 J-20.299492385786802
G3 X37.15989847715736 Y51.33502538071066 I-13.883248730964468 J-20.428934010152282
G3 X32.33502538071066 Y52.77664974619289 I-9.451776649746193 J-22.81979695431472
G3 X26.956852791878173 Y53.28426395939086 I-5.378172588832487 J-28.2005076142132
G3 X21.576142131979697 Y52.77664974619289 I0 J-28.70812182741117
G3 X16.753807106598984 Y51.33502538071066 I4.626903553299492 J-24.263959390862944
G3 X12.319796954314722 Y48.94162436548223 I9.451776649746193 J-22.81979695431472
G3 X8.157360406091371 Y45.5 I16.13705583756345 J-23.743654822335024
G1 Z-6 F800
G3 X4.713197969543147 Y41.33502538071066 I20.299492385786802 J-20.299492385786802 F1500
G3 X2.3223350253807107 Y36.90355329949239 I20.428934010152282 J-13.883248730964468
G3 X0.8807106598984772 Y32.078680203045685 I22.81979695431472 J-9.451776649746193
G3 X0.37055837563451777 Y26.700507614213194 I28.2005076142132 J-5.378172588832487
G3 X0.8807106598984772 Y21.32233502538071 I28.70812182741117 J0
G3 X2.3223350253807107 Y16.49746192893401 I24.263959390862944 J4.626903553299492
G3 X4.713197969543147 Y12.065989847715738 I22.81979695431472 J9.451776649746193
G3 X8.157360406091371 Y7.901015228426395 I23.743654822335024 J16.13705583756345
G3 X12.319796954314722 Y4.456852791878172 I20.299492385786802 J20.299492385786802
G3 X16.753807106598984 Y2.065989847715736 I13.883248730964468 J20.428934010152282
G3 X21.576142131979697 Y0.6243654822335025 I9.451776649746193 J22.81979695431472
G3 X26.956852791878173 Y0.11421319796954314 I5.378172588832487 J28.2005076142132
G3 X32.33502538071066 Y0.6243654822335025 I0 J28.70812182741117
G3 X37.15989847715736 Y2.065989847715736 I-4.626903553299492 J24.263959390862944
G3 X41.59137055837563 Y4.456852791878172 I-9.451776649746193 J22.81979695431472
G3 X45.753807106598984 Y7.901015228426395 I-16.13705583756345 J23.743654822335024
G3 X49.1979695431472 Y12.065989847715738 I-20.299492385786802 J20.299492385786802
G3 X51.59137055837563 Y16.49746192893401 I-20.428934010152282 J13.883248730964468
G3 X53.03299492385787 Y21.32233502538071 I-22.81979695431472 J9.451776649746193
G3 X53.54060913705584 Y26.700507614213194 I-28.2005076142132 J5.378172588832487
G3 X53.03299492385787 Y32.078680203045685 I-28.70812182741117 J0
G3 X51.59137055837563 Y36.90355329949239 I-24.263959390862944 J-4.626903553299492
G3 X49.1979695431472 Y41.33502538071066 I-22.81979695431472 J-9.451776649746193
G3 X45.753807106598984 Y45.5 I-23.743654822335024 J-16.13705583756345
G3 X41.59137055837563 Y48.94162436548223 I-20.299492385786802 J-20.299492385786802
G3 X37.15989847715736 Y51.33502538071066 I-13.883248730964468 J-20.428934010152282
G3 X32.33502538071066 Y52.77664974619289 I-9.451776649746193 J-22.81979695431472
G3 X26.956852791878173 Y53.28426395939086 I-5.378172588832487 J-28.2005076142132
G3 X21.576142131979697 Y52.77664974619289 I0 J-28.70812182741117
G3 X16.753807106598984 Y51.33502538071066 I4.626903553299492 J-24.263959390862944
G3 X12.319796954314722 Y48.94162436548223 I9.451776649746193 J-22.81979695431472
G3 X8.157360406091371 Y45.5 I16.13705583756345 J-23.743654822335024
G1 Z-7.5 F800
G3 X4.713197969543147 Y41.33502538071066 I20.299492385786802 J-20.299492385786802 F1500
G3 X2.3223350253807107 Y36.90355329949239 I20.428934010152282 J-13.883248730964468
G3 X0.8807106598984772 Y32.078680203045685 I22.81979695431472 J-9.451776649746193
G3 X0.37055837563451777 Y26.700507614213194 I28.2005076142132 J-5.378172588832487
G3 X0.8807106598984772 Y21.32233502538071 I28.70812182741117 J0
G3 X2.3223350253807107 Y16.49746192893401 I24.263959390862944 J4.626903553299492
G3 X4.713197969543147 Y12.065989847715738 I22.81979695431472 J9.451776649746193
G3 X8.157360406091371 Y7.901015228426395 I23.743654822335024 J16.13705583756345
G3 X12.319796954314722 Y4.456852791878172 I20.299492385786802 J20.299492385786802
G3 X16.753807106598984 Y2.065989847715736 I13.883248730964468 J20.428934010152282
G3 X21.576142131979697 Y0.6243654822335025 I9.451776649746193 J22.81979695431472
G3 X26.956852791878173 Y0.11421319796954314 I5.378172588832487 J28.2005076142132
G3 X32.33502538071066 Y0.6243654822335025 I0 J28.70812182741117
G3 X37.15989847715736 Y2.065989847715736 I-4.626903553299492 J24.263959390862944
G3 X41.59137055837563 Y4.456852791878172 I-9.451776649746193 J22.81979695431472
G3 X45.753807106598984 Y7.901015228426395 I-16.13705583756345 J23.743654822335024
G3 X49.1979695431472 Y12.065989847715738 I-20.299492385786802 J20.299492385786802
G3 X51.59137055837563 Y16.49746192893401 I-20.428934010152282 J13.883248730964468
G3 X53.03299492385787 Y21.32233502538071 I-22.81979695431472 J9.451776649746193
G3 X53.54060913705584 Y26.700507614213194 I-28.2005076142132 J5.378172588832487
G3 X53.03299492385787 Y32.078680203045685 I-28.70812182741117 J0
G3 X51.59137055837563 Y36.90355329949239 I-24.263959390862944 J-4.626903553299492
G3 X49.1979695431472 Y41.33502538071066 I-22.81979695431472 J-9.451776649746193
G3 X45.753807106598984 Y45.5 I-23.743654822335024 J-16.13705583756345
G3 X41.59137055837563 Y48.94162436548223 I-20.299492385786802 J-20.299492385786802
G3 X37.15989847715736 Y51.33502538071066 I-13.883248730964468 J-20.428934010152282
G3 X32.33502538071066 Y52.77664974619289 I-9.451776649746193 J-22.81979695431472
G3 X26.956852791878173 Y53.28426395939086 I-5.378172588832487 J-28.2005076142132
G3 X21.576142131979697 Y52.77664974619289 I0 J-28.70812182741117
G3 X16.753807106598984 Y51.33502538071066 I4.626903553299492 J-24.263959390862944
G3 X12.319796954314722 Y48.94162436548223 I9.451776649746193 J-22.81979695431472
G3 X8.157360406091371 Y45.5 I16.13705583756345 J-23.743654822335024
G1 Z-9 F800
G3 X4.713197969543147 Y41.33502538071066 I20.299492385786802 J-20.299492385786802 F1500
G3 X2.3223350253807107 Y36.90355329949239 I20.428934010152282 J-13.883248730964468
G3 X0.8807106598984772 Y32.078680203045685 I22.81979695431472 J-9.451776649746193
G3 X0.37055837563451777 Y26.700507614213194 I28.2005076142132 J-5.378172588832487
G3 X0.8807106598984772 Y21.32233502538071 I28.70812182741117 J0
G3 X2.3223350253807107 Y16.49746192893401 I24.263959390862944 J4.626903553299492
G3 X4.713197969543147 Y12.065989847715738 I22.81979695431472 J9.451776649746193
G3 X8.157360406091371 Y7.901015228426395 I23.743654822335024 J16.13705583756345
G3 X12.319796954314722 Y4.456852791878172 I20.299492385786802 J20.299492385786802
G3 X16.753807106598984 Y2.065989847715736 I13.883248730964468 J20.428934010152282
G3 X21.576142131979697 Y0.6243654822335025 I9.451776649746193 J22.81979695431472
G3 X26.956852791878173 Y0.11421319796954314 I5.378172588832487 J28.2005076142132
G3 X32.33502538071066 Y0.6243654822335025 I0 J28.70812182741117
G3 X37.15989847715736 Y2.065989847715736 I-4.626903553299492 J24.263959390862944
G3 X41.59137055837563 Y4.456852791878172 I-9.451776649746193 J22.81979695431472
G3 X45.753807106598984 Y7.901015228426395 I-16.13705583756345 J23.743654822335024
G3 X49.1979695431472 Y12.065989847715738 I-20.299492385786802 J20.299492385786802
G3 X51.59137055837563 Y16.49746192893401 I-20.428934010152282 J13.883248730964468
G3 X53.03299492385787 Y21.32233502538071 I-22.81979695431472 J9.451776649746193
G3 X53.54060913705584 Y26.700507614213194 I-28.2005076142132 J5.378172588832487
G3 X53.03299492385787 Y32.078680203045685 I-28.70812182741117 J0
G3 X51.59137055837563 Y36.90355329949239 I-24.263959390862944 J-4.626903553299492
G3 X49.1979695431472 Y41.33502538071066 I-22.81979695431472 J-9.451776649746193
G3 X45.753807106598984 Y45.5 I-23.743654822335024 J-16.13705583756345
G3 X41.59137055837563 Y48.94162436548223 I-20.299492385786802 J-20.299492385786802
G3 X37.15989847715736 Y51.33502538071066 I-13.883248730964468 J-20.428934010152282
G3 X32.33502538071066 Y52.77664974619289 I-9.451776649746193 J-22.81979695431472
G3 X26.956852791878173 Y53.28426395939086 I-5.378172588832487 J-28.2005076142132
G3 X21.576142131979697 Y52.77664974619289 I0 J-28.70812182741117
G3 X16.753807106598984 Y51.33502538071066 I4.626903553299492 J-24.263959390862944
G3 X12.319796954314722 Y48.94162436548223 I9.451776649746193 J-22.81979695431472
G3 X8.157360406091371 Y45.5 I16.13705583756345 J-23.743654822335024
G1 Z-10 F800
G3 X4.713197969543147 Y41.33502538071066 I20.299492385786802 J-20.299492385786802 F1500
G3 X2.3223350253807107 Y36.90355329949239 I20.428934010152282 J-13.883248730964468
G3 X0.8807106598984772 Y32.078680203045685 I22.81979695431472 J-9.451776649746193
G3 X0.37055837563451777 Y26.700507614213194 I28.2005076142132 J-5.378172588832487
G3 X0.8807106598984772 Y21.32233502538071 I28.70812182741117 J0
G3 X2.3223350253807107 Y16.49746192893401 I24.263959390862944 J4.626903553299492
G3 X4.713197969543147 Y12.065989847715738 I22.81979695431472 J9.451776649746193
G3 X8.157360406091371 Y7.901015228426395 I23.743654822335024 J16.13705583756345
G3 X12.319796954314722 Y4.456852791878172 I20.299492385786802 J20.299492385786802
G3 X16.753807106598984 Y2.065989847715736 I13.883248730964468 J20.428934010152282
G3 X21.576142131979697 Y0.6243654822335025 I9.451776649746193 J22.81979695431472
G3 X26.956852791878173 Y0.11421319796954314 I5.378172588832487 J28.2005076142132
G3 X32.33502538071066 Y0.6243654822335025 I0 J28.70812182741117
G3 X37.15989847715736 Y2.065989847715736 I-4.626903553299492 J24.263959390862944
G3 X41.59137055837563 Y4.456852791878172 I-9.451776649746193 J22.81979695431472
G3 X45.753807106598984 Y7.901015228426395 I-16.13705583756345 J23.743654822335024
G3 X49.1979695431472 Y12.065989847715738 I-20.299492385786802 J20.299492385786802
G3 X51.59137055837563 Y16.49746192893401 I-20.428934010152282 J13.883248730964468
G3 X53.03299492385787 Y21.32233502538071 I-22.81979695431472 J9.451776649746193
G3 X53.54060913705584 Y26.700507614213194 I-28.2005076142132 J5.378172588832487
G3 X53.03299492385787 Y32.078680203045685 I-28.70812182741117 J0
G3 X51.59137055837563 Y36.90355329949239 I-24.263959390862944 J-4.626903553299492
G3 X49.1979695431472 Y41.33502538071066 I-22.81979695431472 J-9.451776649746193
G3 X45.753807106598984 Y45.5 I-23.743654822335024 J-16.13705583756345
G3 X41.59137055837563 Y48.94162436548223 I-20.299492385786802 J-20.299492385786802
G3 X37.15989847715736 Y51.33502538071066 I-13.883248730964468 J-20.428934010152282
G3 X32.33502538071066 Y52.77664974619289 I-9.451776649746193 J-22.81979695431472
G3 X26.956852791878173 Y53.28426395939086 I-5.378172588832487 J-28.2005076142132
G3 X21.576142131979697 Y52.77664974619289 I0 J-28.70812182741117
G3 X16.753807106598984 Y51.33502538071066 I4.626903553299492 J-24.263959390862944
G3 X12.319796954314722 Y48.94162436548223 I9.451776649746193 J-22.81979695431472
G3 X8.157360406091371 Y45.5 I16.13705583756345 J-23.743654822335024

(pocket 2)
G0 Z15
G0 X27.197208121827412 Y27.280964467005077
G1 Z-1.5 F800
G3 X26.95431472081218 Y27.29187817258883 I-0.23857868020304568 J-2.705583756345178 F1500
G3 X26.715736040609137 Y27.281725888324875 I-0.005076142131979696 J-2.715736040609137
G3 X26.538071065989847 Y27.116751269035536 I1.7436548223350254 J-2.0812182741116754
G3 X26.375634517766496 Y26.941624365482234 I1.916243654822335 J-1.9238578680203045
G3 X26.365482233502537 Y26.703045685279186 I2.705583756345178 J-0.23857868020304568
G1 X26.365482233502537 Y26.69796954314721
G1 X26.365482233502537 Y26.69289340101523
G3 X26.375634517766496 Y26.45939086294416 I2.715736040609137 J0
G3 X26.54060913705584 Y26.281725888324875 I2.0812182741116754 J1.7436548223350254
G3 X26.715736040609137 Y26.11928934010152 I1.9238578680203045 J1.916243654822335
G3 X26.95939086294416 Y26.109137055837564 I0.23857868020304568 J2.705583756345178
G3 X27.195431472081218 Y26.11928934010152 I0.005076142131979696 J2.715736040609137
G3 X27.375634517766496 Y26.284263959390863 I-1.7436548223350254 J2.0812182741116754
G3 X27.538071065989847 Y26.45939086294416 I-1.916243654822335 J1.9238578680203045
G3 X27.548223350253807 Y26.69796954314721 I-2.705583756345178 J0.23857868020304568
G1 X27.548223350253807 Y26.703045685279186
G1 X27.548223350253807 Y26.705583756345177
G3 X27.538071065989847 Y26.941624365482234 I-2.715736040609137 J0
G3 X27.373096446700508 Y27.119289340101524 I-2.0812182741116754 J-1.7436548223350254
G3 X27.197969543147206 Y27.281725888324875 I-1.9238578680203045 J-1.916243654822335
G1 X28.270812182741118 Y28.01497461928934 F1500
G3 X27.69796954314721 Y28.48984771573604 I-2.8197969543147208 J-2.812182741116751 F1500
G3 X26.956852791878173 Y28.558375634517766 I-0.7385786802030457 J-3.913705583756345
G3 X26.215736040609137 Y28.492385786802032 I-0.005076142131979696 J-3.982233502538071
G3 X25.64213197969543 Y28.01522842639594 I2.2436548223350252 J-3.2893401015228423
G3 X25.16751269035533 Y27.444162436548222 I2.812182741116751 J-2.8197969543147208
G3 X25.096446700507613 Y26.703045685279186 I3.913705583756345 J-0.7385786802030457
G1 X25.096446700507613 Y26.700507614213194
G1 X25.096446700507613 Y26.69289340101523
G3 X25.16497461928934 Y25.95939086294416 I3.982233502538071 J0
G3 X25.64213197969543 Y25.385786802030456 I3.2893401015228423 J2.2436548223350252
G3 X26.213197969543145 Y24.911167512690355 I2.8197969543147208 J2.812182741116751
G3 X26.956852791878173 Y24.84263959390863 I0.7385786802030457 J3.913705583756345
G3 X27.69796954314721 Y24.908629441624367 I0.005076142131979696 J3.982233502538071
G3 X28.27157360406091 Y25.385786802030456 I-2.2436548223350252 J3.2893401015228423
G3 X28.746192893401016 Y25.956852791878173 I-2.812182741116751 J2.8197969543147208
G3 X28.81472081218274 Y26.69796954314721 I-3.913705583756345 J0.7385786802030457
G1 X28.81472081218274 Y26.700507614213194
G1 X28.81472081218274 Y26.705583756345177
G3 X28.746192893401016 Y27.441624365482234 I-3.982233502538071 J0
G3 X28.27157360406091 Y28.01522842639594 I-3.2893401015228423 J-2.2436548223350252
G1 X29.16751269035533 Y28.911421319796954 F1500
G3 X28.406091370558375 Y29.54060913705584 I-3.713197969543147 J-3.713197969543147 F1500
G3 X28.18274111675127 Y29.66243654822335 I-0.6979695431472082 J-1.0279187817258884
G3 X27.939086294416242 Y29.733502538071065 I-0.47461928934010156 J-1.1472081218274113
G3 X26.956852791878173 Y29.82741116751269 I-0.9847715736040609 J-5.15736040609137
G3 X25.97208121827411 Y29.733502538071065 I0 J-5.251269035532995
G3 X25.730964467005077 Y29.66243654822335 I0.23350253807106597 J-1.2208121827411167
G3 X25.507614213197968 Y29.54060913705584 I0.47461928934010156 J-1.1472081218274113
G3 X24.746192893401012 Y28.911167512690355 I2.9517766497461926 J-4.342639593908629
G3 X24.114213197969544 Y28.149746192893403 I3.713197969543147 J-3.713197969543147
G3 X23.99492385786802 Y27.92639593908629 I1.0279187817258884 J-0.6979695431472082
G3 X23.921319796954315 Y27.685279187817258 I1.1472081218274113 J-0.47461928934010156
G3 X23.82994923857868 Y26.700507614213194 I5.15736040609137 J-0.9847715736040609
G3 X23.921319796954315 Y25.715736040609137 I5.251269035532995 J0
G3 X23.99492385786802 Y25.474619289340104 I1.2208121827411167 J0.23350253807106597
G3 X24.114213197969544 Y25.251269035532996 I1.1472081218274113 J0.47461928934010156
G3 X24.746192893401012 Y24.48984771573604 I4.342639593908629 J2.9517766497461926
G3 X25.507614213197968 Y23.860406091370557 I3.713197969543147 J3.713197969543147
G3 X25.730964467005077 Y23.738578680203048 I0.6979695431472082 J1.0279187817258884
G3 X25.97208121827411 Y23.667512690355327 I0.47461928934010156 J1.1472081218274113
G3 X26.956852791878173 Y23.573604060913706 I0.9847715736040609 J5.15736040609137
G3 X27.939086294416242 Y23.667512690355327 I0 J5.251269035532995
G3 X28.18274111675127 Y23.738578680203048 I-0.23350253807106597 J1.2208121827411167
G3 X28.406091370558375 Y23.860406091370557 I-0.47461928934010156 J1.1472081218274113
G3 X29.16751269035533 Y24.48984771573604 I-2.9517766497461926 J4.342639593908629
G3 X29.79695431472081 Y25.251269035532996 I-3.713197969543147 J3.713197969543147
G3 X29.918781725888323 Y25.474619289340104 I-1.0279187817258884 J0.6979695431472082
G3 X29.98984771573604 Y25.715736040609137 I-1.1472081218274113 J0.47461928934010156
G3 X30.08375634517766 Y26.700507614213194 I-5.15736040609137 J0.9847715736040609
G3 X29.98984771573604 Y27.685279187817258 I-5.251269035532995 J0
G3 X29.918781725888323 Y27.92639593908629 I-1.2208121827411167 J-0.23350253807106597
G3 X29.79695431472081 Y28.149746192893403 I-1.1472081218274113 J-0.47461928934010156
G3 X29.16751269035533 Y28.911167512690355 I-4.342639593908629 J-2.9517766497461926
G1 X30.064213197969544 Y29.808121827411167 F1500
G3 X29.119289340101524 Y30.591370558375633 I-4.6091370558375635 J-4.6091370558375635 F1500
G3 X28.667512690355327 Y30.83248730964467 I-1.4111675126903553 J-2.0761421319796955
G3 X28.177664974619287 Y30.97969543147208 I-0.9619289340101522 J-2.3197969543147208
G3 X26.956852791878173 Y31.096446700507613 I-1.2208121827411167 J-6.403553299492386
G3 X25.736040609137056 Y30.97969543147208 I0 J-6.520304568527919
G3 X25.243654822335024 Y30.83248730964467 I0.46954314720812185 J-2.467005076142132
G3 X24.794416243654823 Y30.591370558375633 I0.9619289340101522 J-2.3197969543147208
G3 X23.84771573604061 Y29.80710659898477 I3.66497461928934 J-5.3908629441624365
G3 X23.065989847715738 Y28.86294416243655 I4.6091370558375635 J-4.6091370558375635
G3 X22.82233502538071 Y28.411167512690355 I2.0761421319796955 J-1.4111675126903553
G3 X22.67766497461929 Y27.921319796954315 I2.3197969543147208 J-0.9619289340101522
G3 X22.560913705583758 Y26.700507614213194 I6.403553299492386 J-1.2208121827411167
G3 X22.67766497461929 Y25.47969543147208 I6.520304568527919 J0
G3 X22.82233502538071 Y24.98730964467005 I2.467005076142132 J0.46954314720812185
G3 X23.065989847715738 Y24.538071065989847 I2.3197969543147208 J0.9619289340101522
G3 X23.84771573604061 Y23.59390862944162 I5.3908629441624365 J3.66497461928934
G3 X24.794416243654823 Y22.80964467005076 I4.6091370558375635 J4.6091370558375635
G3 X25.243654822335024 Y22.568527918781726 I1.4111675126903553 J2.0761421319796955
G3 X25.736040609137056 Y22.421319796954315 I0.9619289340101522 J2.3197969543147208
G3 X26.956852791878173 Y22.304568527918782 I1.2208121827411167 J6.403553299492386
G3 X28.177664974619287 Y22.421319796954315 I0 J6.520304568527919
G3 X28.667512690355327 Y22.568527918781726 I-0.46954314720812185 J2.467005076142132
G3 X29.119289340101524 Y22.80964467005076 I-0.9619289340101522 J2.3197969543147208
G3 X30.06345177664975 Y23.59390862944162 I-3.66497461928934 J5.3908629441624365
G3 X30.84517766497462 Y24.538071065989847 I-4.6091370558375635 J4.6091370558375635
G3 X31.088832487309645 Y24.98730964467005 I-2.0761421319796955 J1.4111675126903553
G3 X31.236040609137056 Y25.47969543147208 I-2.3197969543147208 J0.9619289340101522
G3 X31.3502538071066 Y26.700507614213194 I-6.403553299492386 J1.2208121827411167
G3 X31.236040609137056 Y27.921319796954315 I-6.520304568527919 J0
G3 X31.088832487309645 Y28.411167512690355 I-2.467005076142132 J-0.46954314720812185
G3 X30.84517766497462 Y28.86294416243655 I-2.3197969543147208 J-0.9619289340101522
G3 X30.06345177664975 Y29.80710659898477 I-5.3908629441624365 J-3.66497461928934
G1 X30.960659898477157 Y30.70482233502538 F1500
G3 X29.83248730964467 Y31.63959390862944 I-5.50507614213198 J-5.50507614213198 F1500
G3 X29.152284263959388 Y32.00507614213198 I-2.1243654822335025 J-3.1243654822335025
G3 X28.41624365482233 Y32.2258883248731 I-1.4467005076142132 J-3.4923857868020303
G3 X26.956852791878173 Y32.36294416243655 I-1.4593908629441623 J-7.649746192893401
G3 X25.497461928934012 Y32.2258883248731 I0 J-7.786802030456853
G3 X24.758883248730964 Y32.00507614213198 I0.7081218274111676 J-3.713197969543147
G3 X24.081218274111677 Y31.63959390862944 I1.4467005076142132 J-3.4923857868020303
G3 X22.951776649746193 Y30.705583756345177 I4.378172588832488 J-6.441624365482234
G3 X22.01776649746193 Y29.576142131979694 I5.50507614213198 J-5.50507614213198
G3 X21.652284263959388 Y28.898477157360407 I3.1243654822335025 J-2.1243654822335025
G3 X21.431472081218274 Y28.15989847715736 I3.4923857868020303 J-1.4467005076142132
G3 X21.294416243654823 Y26.700507614213194 I7.649746192893401 J-1.4593908629441623
G3 X21.431472081218274 Y25.241116751269036 I7.786802030456853 J0
G3 X21.652284263959388 Y24.502538071065988 I3.713197969543147 J0.7081218274111676
G3 X22.01776649746193 Y23.8248730964467 I3.4923857868020303 J1.4467005076142132
G3 X22.951776649746193 Y22.695431472081218 I6.441624365482234 J4.378172588832488
G3 X24.081218274111677 Y21.761421319796955 I5.50507614213198 J5.50507614213198
G3 X24.758883248730964 Y21.395939086294415 I2.1243654822335025 J3.1243654822335025
G3 X25.497461928934012 Y21.1751269035533 I1.4467005076142132 J3.4923857868020303
G3 X26.956852791878173 Y21.03807106598985 I1.4593908629441623 J7.649746192893401
G3 X28.41624365482233 Y21.1751269035533 I0 J7.786802030456853
G3 X29.152284263959388 Y21.395939086294415 I-0.7081218274111676 J3.713197969543147
G3 X29.83248730964467 Y21.761421319796955 I-1.4467005076142132 J3.4923857868020303
G3 X30.961928934010153 Y22.695431472081218 I-4.378172588832488 J6.441624365482234
G3 X31.89593908629442 Y23.8248730964467 I-5.50507614213198 J5.50507614213198
G3 X32.26142131979695 Y24.502538071065988 I-3.1243654822335025 J2.1243654822335025
G3 X32.48223350253807 Y25.241116751269036 I-3.4923857868020303 J1.4467005076142132
G3 X32.619289340101524 Y26.700507614213194 I-7.649746192893401 J1.4593908629441623
G3 X32.48223350253807 Y28.15989847715736 I-7.786802030456853 J0
G3 X32.26142131979695 Y28.898477157360407 I-3.713197969543147 J-0.7081218274111676
G3 X31.89593908629442 Y29.576142131979694 I-3.4923857868020303 J-1.4467005076142132
G3 X30.961928934010153 Y30.705583756345177 I-6.441624365482234 J-4.378172588832488
G1 X31.85736040609137 Y31.601269035532994 F1500
G3 X30.543147208121827 Y32.68781725888325 I-6.403553299492386 J-6.403553299492386 F1500
G3 X29.639593908629443 Y33.1751269035533 I-2.8375634517766497 J-4.175126903553299
G3 X28.65228426395939 Y33.47208121827411 I-1.9314720812182742 J-4.662436548223351
G3 X26.956852791878173 Y33.63197969543147 I-1.6954314720812182 J-8.895939086294417
G3 X25.258883248730967 Y33.47208121827411 I0 J-9.055837563451776
G3 X24.274111675126903 Y33.1751269035533 I0.9467005076142132 J-4.956852791878172
G3 X23.368020304568525 Y32.68781725888325 I1.9314720812182742 J-4.662436548223351
G3 X22.055837563451774 Y31.601522842639596 I5.088832487309645 J-7.489847715736041
G3 X20.96954314720812 Y30.289340101522843 I6.403553299492386 J-6.403553299492386
G3 X20.47969543147208 Y29.383248730964468 I4.175126903553299 J-2.8375634517766497
G3 X20.185279187817258 Y28.39593908629442 I4.662436548223351 J-1.9314720812182742
G3 X20.0253807106599 Y26.700507614213194 I8.895939086294417 J-1.6954314720812182
G3 X20.185279187817258 Y25.00253807106599 I9.055837563451776 J0
G3 X20.47969543147208 Y24.017766497461928 I4.956852791878172 J0.9467005076142132
G3 X20.96954314720812 Y23.111675126903553 I4.662436548223351 J1.9314720812182742
G3 X22.055837563451774 Y21.7994923857868 I7.489847715736041 J5.088832487309645
G3 X23.368020304568525 Y20.71319796954315 I6.403553299492386 J6.403553299492386
G3 X24.274111675126903 Y20.22335025380711 I2.8375634517766497 J4.175126903553299
G3 X25.258883248730967 Y19.928934010152282 I1.9314720812182742 J4.662436548223351
G3 X26.956852791878173 Y19.769035532994923 I1.6954314720812182 J8.895939086294417
G3 X28.65228426395939 Y19.928934010152282 I0 J9.055837563451776
G3 X29.639593908629443 Y20.22335025380711 I-0.9467005076142132 J4.956852791878172
G3 X30.543147208121827 Y20.71319796954315 I-1.9314720812182742 J4.662436548223351
G3 X31.85786802030457 Y21.7994923857868 I-5.088832487309645 J7.489847715736041
G3 X32.944162436548226 Y23.111675126903553 I-6.403553299492386 J6.403553299492386
G3 X33.431472081218274 Y24.017766497461928 I-4.175126903553299 J2.8375634517766497
G3 X33.7258883248731 Y25.00253807106599 I-4.662436548223351 J1.9314720812182742
G3 X33.888324873096444 Y26.700507614213194 I-8.895939086294417 J1.6954314720812182
G3 X33.7258883248731 Y28.39593908629442 I-9.055837563451776 J0
G3 X33.431472081218274 Y29.383248730964468 I-4.956852791878172 J-0.9467005076142132
G3 X32.944162436548226 Y30.289340101522843 I-4.662436548223351 J-1.9314720812182742
G3 X31.85786802030457 Y31.601522842639596 I-7.489847715736041 J-5.088832487309645
G1 X32.75406091370559 Y32.49796954314721 F1500
G3 X31.256345177664976 Y33.736040609137056 I-7.299492385786802 J-7.299492385786802 F1500
G3 X30.124365482233504 Y34.347715736040605 I-3.550761421319797 J-5.223350253807107
G3 X28.890862944162436 Y34.71573604060914 I-2.416243654822335 J-5.83502538071066
G3 X26.956852791878173 Y34.89847715736041 I-1.934010152284264 J-10.13959390862944
G3 X25.022842639593907 Y34.71573604060914 I0 J-10.322335025380712
G3 X23.789340101522846 Y34.347715736040605 I1.182741116751269 J-6.203045685279188
G3 X22.654822335025383 Y33.736040609137056 I2.416243654822335 J-5.83502538071066
G3 X21.159898477157363 Y32.49746192893401 I5.802030456852791 J-8.538071065989847
G3 X19.921319796954315 Y31 I7.299492385786802 J-7.299492385786802
G3 X19.309644670050762 Y29.86802030456853 I5.223350253807107 J-3.550761421319797
G3 X18.939086294416242 Y28.634517766497463 I5.83502538071066 J-2.416243654822335
G3 X18.756345177664976 Y26.700507614213194 I10.13959390862944 J-1.934010152284264
G3 X18.939086294416242 Y24.766497461928935 I10.322335025380712 J0
G3 X19.309644670050762 Y23.532994923857867 I6.203045685279188 J1.182741116751269
G3 X19.921319796954315 Y22.401015228426395 I5.83502538071066 J2.416243654822335
G3 X21.159898477157363 Y20.903553299492387 I8.538071065989847 J5.802030456852791
G3 X22.654822335025383 Y19.66497461928934 I7.299492385786802 J7.299492385786802
G3 X23.789340101522846 Y19.053299492385786 I3.550761421319797 J5.223350253807107
G3 X25.022842639593907 Y18.685279187817258 I2.416243654822335 J5.83502538071066
G3 X26.956852791878173 Y18.50253807106599 I1.934010152284264 J10.13959390862944
G3 X28.890862944162436 Y18.685279187817258 I0 J10.322335025380712
G3 X30.124365482233504 Y19.053299492385786 I-1.182741116751269 J6.203045685279188
G3 X31.256345177664976 Y19.66497461928934 I-2.416243654822335 J5.83502538071066
G3 X32.753807106598984 Y20.903553299492387 I-5.802030456852791 J8.538071065989847
G3 X33.99238578680203 Y22.401015228426395 I-7.299492385786802 J7.299492385786802
G3 X34.60406091370559 Y23.532994923857867 I-5.223350253807107 J3.550761421319797
G3 X34.97208121827411 Y24.766497461928935 I-5.83502538071066 J2.416243654822335
G3 X35.15482233502538 Y26.700507614213194 I-10.13959390862944 J1.934010152284264
G3 X34.97208121827411 Y28.634517766497463 I-10.322335025380712 J0
G3 X34.60406091370559 Y29.86802030456853 I-6.203045685279188 J-1.182741116751269
G3 X33.99238578680203 Y31 I-5.83502538071066 J-2.416243654822335
G3 X32.753807106598984 Y32.49746192893401 I-8.538071065989847 J-5.802030456852791
G1 X33.6505076142132 Y33.39467005076142 F1500
G3 X31.969543147208125 Y34.78426395939086 I-8.195431472081218 J-8.195431472081218 F1500
G3 X30.609137055837564 Y35.52030456852792 I-4.261421319796954 J-6.271573604060913
G3 X29.126903553299492 Y35.96192893401015 I-2.9010152284263957 J-7.00507614213198
G3 X26.956852791878173 Y36.16751269035533 I-2.1725888324873095 J-11.385786802030458
G3 X24.784263959390863 Y35.96192893401015 I0 J-11.591370558375635
G3 X23.304568527918782 Y35.52030456852792 I1.4213197969543148 J-7.449238578680203
G3 X21.944162436548226 Y34.78426395939086 I2.9010152284263957 J-7.00507614213198
G3 X20.261421319796952 Y33.39340101522843 I6.5152284263959395 J-9.586294416243655
G3 X18.87055837563452 Y31.713197969543145 I8.195431472081218 J-8.195431472081218
G3 X18.13705583756345 Y30.35279187817259 I6.271573604060913 J-4.261421319796954
G3 X17.695431472081218 Y28.873096446700508 I7.00507614213198 J-2.9010152284263957
G3 X17.48984771573604 Y26.700507614213194 I11.385786802030458 J-2.1725888324873095
G3 X17.695431472081218 Y24.527918781725887 I11.591370558375635 J0
G3 X18.13705583756345 Y23.04822335025381 I7.449238578680203 J1.4213197969543148
G3 X18.87055837563452 Y21.68781725888325 I7.00507614213198 J2.9010152284263957
G3 X20.261421319796952 Y20.00507614213198 I9.586294416243655 J6.5152284263959395
G3 X21.944162436548226 Y18.616751269035532 I8.195431472081218 J8.195431472081218
G3 X23.304568527918782 Y17.880710659898476 I4.261421319796954 J6.271573604060913
G3 X24.784263959390863 Y17.439086294416242 I2.9010152284263957 J7.00507614213198
G3 X26.956852791878173 Y17.233502538071065 I2.1725888324873095 J11.385786802030458
G3 X29.126903553299492 Y17.439086294416242 I0 J11.591370558375635
G3 X30.609137055837564 Y17.880710659898476 I-1.4213197969543148 J7.449238578680203
G3 X31.969543147208125 Y18.616751269035532 I-2.9010152284263957 J7.00507614213198
G3 X33.6497461928934 Y20.00507614213198 I-6.5152284263959395 J9.586294416243655
G3 X35.04060913705584 Y21.68781725888325 I-8.195431472081218 J8.195431472081218
G3 X35.7741116751269 Y23.04822335025381 I-6.271573604060913 J4.261421319796954
G3 X36.21827411167513 Y24.527918781725887 I-7.00507614213198 J2.9010152284263957
G3 X36.423857868020306 Y26.700507614213194 I-11.385786802030458 J2.1725888324873095
G3 X36.21827411167513 Y28.873096446700508 I-11.591370558375635 J0
G3 X35.7741116751269 Y30.35279187817259 I-7.449238578680203 J-1.4213197969543148
G3 X35.04060913705584 Y31.713197969543145 I-7.00507614213198 J-2.9010152284263957
G3 X33.6497461928934 Y33.39340101522843 I-9.586294416243655 J-6.5152284263959395
G1 X34.54720812182741 Y34.29111675126904 F1500
G3 X32.68274111675127 Y35.83502538071066 I-9.093908629441623 J-9.093908629441623 F1500
G3 X31.09390862944162 Y36.69035532994924 I-4.974619289340102 J-7.319796954314722
G3 X29.36548223350254 Y37.20812182741117 I-3.3883248730964466 J-8.17766497461929
G3 X26.956852791878173 Y37.43654822335025 I-2.4086294416243654 J-12.631979695431472
G3 X24.548223350253807 Y37.20812182741117 I0 J-12.857868020304569
G3 X22.81725888324873 Y36.69035532994924 I1.6573604060913705 J-8.695431472081218
G3 X21.230964467005077 Y35.83502538071066 I3.3883248730964466 J-8.17766497461929
G3 X19.365482233502537 Y34.29187817258884 I7.228426395939086 J-10.634517766497462
G3 X17.82233502538071 Y32.42639593908629 I9.093908629441623 J-9.093908629441623
G3 X16.967005076142133 Y30.83756345177665 I7.319796954314722 J-4.974619289340102
G3 X16.449238578680202 Y29.10913705583756 I8.17766497461929 J-3.3883248730964466
G3 X16.220812182741117 Y26.700507614213194 I12.631979695431472 J-2.4086294416243654
G3 X16.449238578680202 Y24.291878172588834 I12.857868020304569 J0
G3 X16.967005076142133 Y22.56345177664975 I8.695431472081218 J1.6573604060913705
G3 X17.82233502538071 Y20.9746192893401 I8.17766497461929 J3.3883248730964466
G3 X19.365482233502537 Y19.109137055837564 I10.634517766497462 J7.228426395939086
G3 X21.230964467005077 Y17.565989847715734 I9.093908629441623 J9.093908629441623
G3 X22.81725888324873 Y16.710659898477157 I4.974619289340102 J7.319796954314722
G3 X24.548223350253807 Y16.19289340101523 I3.3883248730964466 J8.17766497461929
G3 X26.956852791878173 Y15.964467005076141 I2.4086294416243654 J12.631979695431472
G3 X29.36548223350254 Y16.19289340101523 I0 J12.857868020304569
G3 X31.09390862944162 Y16.710659898477157 I-1.6573604060913705 J8.695431472081218
G3 X32.68274111675127 Y17.565989847715734 I-3.3883248730964466 J8.17766497461929
G3 X34.54822335025381 Y19.109137055837564 I-7.228426395939086 J10.634517766497462
G3 X36.088832487309645 Y20.9746192893401 I-9.093908629441623 J9.093908629441623
G3 X36.94670050761421 Y22.56345177664975 I-7.319796954314722 J4.974619289340102
G3 X37.464467005076145 Y24.291878172588834 I-8.17766497461929 J3.3883248730964466
G3 X37.69035532994924 Y26.700507614213194 I-12.631979695431472 J2.4086294416243654
G3 X37.464467005076145 Y29.10913705583756 I-12.857868020304569 J0
G3 X36.94670050761421 Y30.83756345177665 I-8.695431472081218 J-1.6573604060913705
G3 X36.088832487309645 Y32.42639593908629 I-8.17766497461929 J-3.3883248730964466
G3 X34.54822335025381 Y34.29187817258884 I-10.634517766497462 J-7.228426395939086
G1 X35.44390862944162 Y35.18781725888325 F1500
G3 X33.39593908629442 Y36.88324873096447 I-9.98984771573604 J-9.98984771573604 F1500
G3 X31.578680203045685 Y37.86294416243655 I-5.687817258883249 J-8.368020304568528
G3 X29.604060913705585 Y38.45431472081218 I-3.8730964467005076 J-9.347715736040609
G3 X26.956852791878173 Y38.70304568527919 I-2.6472081218274113 J-13.875634517766498
G3 X24.309644670050762 Y38.45431472081218 I0 J-14.126903553299492
G3 X22.33248730964467 Y37.86294416243655 I1.895939086294416 J-9.939086294416244
G3 X20.51776649746193 Y36.88324873096447 I3.8730964467005076 J-9.347715736040609
G3 X18.46954314720812 Y35.18781725888325 I7.941624365482234 J-11.685279187817258
G3 X16.774111675126903 Y33.13959390862944 I9.98984771573604 J-9.98984771573604
G3 X15.794416243654823 Y31.3248730964467 I8.368020304568528 J-5.687817258883249
G3 X15.20304568527919 Y29.347715736040605 I9.347715736040609 J-3.8730964467005076
G3 X14.954314720812183 Y26.700507614213194 I13.875634517766498 J-2.6472081218274113
G3 X15.20304568527919 Y24.05329949238579 I14.126903553299492 J0
G3 X15.794416243654823 Y22.076142131979694 I9.939086294416244 J1.895939086294416
G3 X16.774111675126903 Y20.261421319796952 I9.347715736040609 J3.8730964467005076
G3 X18.46954314720812 Y18.213197969543145 I11.685279187817258 J7.941624365482234
G3 X20.51776649746193 Y16.51776649746193 I9.98984771573604 J9.98984771573604
G3 X22.33248730964467 Y15.538071065989847 I5.687817258883249 J8.368020304568528
G3 X24.309644670050762 Y14.946700507614212 I3.8730964467005076 J9.347715736040609
G3 X26.956852791878173 Y14.69796954314721 I2.6472081218274113 J13.875634517766498
G3 X29.604060913705585 Y14.946700507614212 I0 J14.126903553299492
G3 X31.578680203045685 Y15.538071065989847 I-1.895939086294416 J9.939086294416244
G3 X33.39593908629442 Y16.51776649746193 I-3.8730964467005076 J9.347715736040609
G3 X35.444162436548226 Y18.213197969543145 I-7.941624365482234 J11.685279187817258
G3 X37.13959390862944 Y20.261421319796952 I-9.98984771573604 J9.98984771573604
G3 X38.119289340101524 Y22.076142131979694 I-8.368020304568528 J5.687817258883249
G3 X38.70812182741117 Y24.05329949238579 I-9.347715736040609 J3.8730964467005076
G3 X38.95939086294416 Y26.700507614213194 I-13.875634517766498 J2.6472081218274113
G3 X38.70812182741117 Y29.347715736040605 I-14.126903553299492 J0
G3 X38.119289340101524 Y31.3248730964467 I-9.939086294416244 J-1.895939086294416
G3 X37.13959390862944 Y33.13959390862944 I-9.347715736040609 J-3.8730964467005076
G3 X35.444162436548226 Y35.18781725888325 I-11.685279187817258 J-7.941624365482234
G1 X36.34035532994924 Y36.08451776649746 F1500
G3 X34.109137055837564 Y37.931472081218274 I-10.885786802030458 J-10.885786802030458 F1500
G3 X32.065989847715734 Y39.03299492385787 I-6.401015228426395 J-9.418781725888325
G3 X29.840101522842637 Y39.69796954314721 I-4.3578680203045685 J-10.52030456852792
G3 X26.956852791878173 Y39.97208121827411 I-2.883248730964467 J-15.121827411167512
G3 X24.071065989847718 Y39.69796954314721 I0 J-15.395939086294417
G3 X21.847715736040605 Y39.03299492385787 I2.1345177664974617 J-11.185279187817258
G3 X19.804568527918782 Y37.931472081218274 I4.3578680203045685 J-10.52030456852792
G3 X17.573604060913706 Y36.08375634517766 I8.652284263959391 J-12.733502538071066
G3 X15.725888324873097 Y33.85279187817259 I10.885786802030458 J-10.885786802030458
G3 X14.624365482233504 Y31.809644670050762 I9.418781725888325 J-6.401015228426395
G3 X13.956852791878172 Y29.583756345177665 I10.52030456852792 J-4.3578680203045685
G3 X13.685279187817258 Y26.700507614213194 I15.121827411167512 J-2.883248730964467
G3 X13.956852791878172 Y23.81472081218274 I15.395939086294417 J0
G3 X14.624365482233504 Y21.591370558375633 I11.185279187817258 J2.1345177664974617
G3 X15.725888324873097 Y19.548223350253807 I10.52030456852792 J4.3578680203045685
G3 X17.573604060913706 Y17.317258883248734 I12.733502538071066 J8.652284263959391
G3 X19.804568527918782 Y15.469543147208123 I10.885786802030458 J10.885786802030458
G3 X21.847715736040605 Y14.368020304568528 I6.401015228426395 J9.418781725888325
G3 X24.071065989847718 Y13.703045685279188 I4.3578680203045685 J10.52030456852792
G3 X26.956852791878173 Y13.428934010152284 I2.883248730964467 J15.121827411167512
G3 X29.840101522842637 Y13.703045685279188 I0 J15.395939086294417
G3 X32.065989847715734 Y14.368020304568528 I-2.1345177664974617 J11.185279187817258
G3 X34.109137055837564 Y15.469543147208123 I-4.3578680203045685 J10.52030456852792
G3 X36.34010152284264 Y17.317258883248734 I-8.652284263959391 J12.733502538071066
G3 X38.18781725888325 Y19.548223350253807 I-10.885786802030458 J10.885786802030458
G3 X39.28934010152284 Y21.591370558375633 I-9.418781725888325 J6.401015228426395
G3 X39.95431472081218 Y23.81472081218274 I-10.52030456852792 J4.3578680203045685
G3 X40.22842639593908 Y26.700507614213194 I-15.121827411167512 J2.883248730964467
G3 X39.95431472081218 Y29.583756345177665 I-15.395939086294417 J0
G3 X39.28934010152284 Y31.809644670050762 I-11.185279187817258 J-2.1345177664974617
G3 X38.18781725888325 Y33.85279187817259 I-10.52030456852792 J-4.3578680203045685
G3 X36.34010152284264 Y36.08375634517766 I-12.733502538071066 J-8.652284263959391
G1 X37.23705583756345 Y36.98096446700507 F1500
G3 X34.81979695431472 Y38.97969543147208 I-11.781725888324871 J-11.781725888324871 F1500
G3 X32.5507614213198 Y40.20558375634518 I-7.114213197969543 J-10.467005076142133
G3 X30.078680203045685 Y40.944162436548226 I-4.842639593908629 J-11.692893401015228
G3 X26.956852791878173 Y41.23857868020305 I-3.1218274111675126 J-16.368020304568528
G3 X23.83502538071066 Y40.944162436548226 I0 J-16.66243654822335
G3 X21.36294416243655 Y40.20558375634518 I2.3705583756345177 J-12.431472081218274
G3 X19.091370558375637 Y38.97969543147208 I4.842639593908629 J-11.692893401015228
G3 X16.6751269035533 Y36.982233502538065 I9.365482233502538 J-13.781725888324875
G3 X14.677664974619288 Y34.56345177664974 I11.781725888324871 J-11.781725888324871
G3 X13.451776649746192 Y32.29441624365482 I10.467005076142133 J-7.114213197969543
G3 X12.713197969543145 Y29.82233502538071 I11.692893401015228 J-4.842639593908629
G3 X12.416243654822335 Y26.700507614213194 I16.368020304568528 J-3.1218274111675126
G3 X12.713197969543145 Y23.578680203045685 I16.66243654822335 J0
G3 X13.451776649746192 Y21.106598984771573 I12.431472081218274 J2.3705583756345177
G3 X14.677664974619288 Y18.83502538071066 I11.692893401015228 J4.842639593908629
G3 X16.6751269035533 Y16.418781725888326 I13.781725888324875 J9.365482233502538
G3 X19.091370558375637 Y14.421319796954315 I11.781725888324871 J11.781725888324871
G3 X21.36294416243655 Y13.195431472081218 I7.114213197969543 J10.467005076142133
G3 X23.83502538071066 Y12.456852791878173 I4.842639593908629 J11.692893401015228
G3 X26.956852791878173 Y12.16243654822335 I3.1218274111675126 J16.368020304568528
G3 X30.078680203045685 Y12.456852791878173 I0 J16.66243654822335
G3 X32.5507614213198 Y13.195431472081218 I-2.3705583756345177 J12.431472081218274
G3 X34.81979695431472 Y14.421319796954315 I-4.842639593908629 J11.692893401015228
G3 X37.236040609137056 Y16.418781725888326 I-9.365482233502538 J13.781725888324875
G3 X39.236040609137056 Y18.83502538071066 I-11.781725888324871 J11.781725888324871
G3 X40.461928934010146 Y21.106598984771573 I-10.467005076142133 J7.114213197969543
G3 X41.200507614213194 Y23.578680203045685 I-11.692893401015228 J4.842639593908629
G3 X41.49492385786802 Y26.700507614213194 I-16.368020304568528 J3.1218274111675126
G3 X41.200507614213194 Y29.82233502538071 I-16.66243654822335 J0
G3 X40.461928934010146 Y32.29441624365482 I-12.431472081218274 J-2.3705583756345177
G3 X39.236040609137056 Y34.56345177664974 I-11.692893401015228 J-4.842639593908629
G3 X37.236040609137056 Y36.982233502538065 I-13.781725888324875 J-9.365482233502538
G1 X38.13350253807106 Y37.877664974619286 F1500
G3 X35.53299492385787 Y40.02791878172589 I-12.680203045685278 J-12.680203045685278 F1500
G3 X33.03553299492386 Y41.3756345177665 I-7.824873096446701 J-11.515228426395938
G3 X30.31725888324873 Y42.190355329949234 I-5.32741116751269 J-12.862944162436548
G3 X26.956852791878173 Y42.50761421319797 I-3.3604060913705585 J-17.614213197969544
G3 X23.596446700507613 Y42.190355329949234 I0 J-17.931472081218274
G3 X20.878172588832488 Y41.3756345177665 I2.6091370558375635 J-13.67766497461929
G3 X18.378172588832488 Y40.02791878172589 I5.32741116751269 J-12.862944162436548
G3 X15.779187817258883 Y37.878172588832484 I10.078680203045685 J-14.829949238578681
G3 X13.626903553299492 Y35.276649746192895 I12.680203045685278 J-12.680203045685278
G3 X12.279187817258883 Y32.77918781725888 I11.515228426395938 J-7.824873096446701
G3 X11.467005076142131 Y30.060913705583758 I12.862944162436548 J-5.32741116751269
G3 X11.149746192893401 Y26.700507614213194 I17.614213197969544 J-3.3604060913705585
G3 X11.467005076142131 Y23.34010152284264 I17.931472081218274 J0
G3 X12.279187817258883 Y20.621827411167516 I13.67766497461929 J2.6091370558375635
G3 X13.626903553299492 Y18.1243654822335 I12.862944162436548 J5.32741116751269
G3 X15.779187817258883 Y15.522842639593907 I14.829949238578681 J10.078680203045685
G3 X18.378172588832488 Y13.373096446700508 I12.680203045685278 J12.680203045685278
G3 X20.878172588832488 Y12.025380710659899 I7.824873096446701 J11.515228426395938
G3 X23.596446700507613 Y11.210659898477157 I5.32741116751269 J12.862944162436548
G3 X26.956852791878173 Y10.893401015228426 I3.3604060913705585 J17.614213197969544
G3 X30.31725888324873 Y11.210659898477157 I0 J17.931472081218274
G3 X33.03553299492386 Y12.025380710659899 I-2.6091370558375635 J13.67766497461929
G3 X35.53299492385787 Y13.373096446700508 I-5.32741116751269 J12.862944162436548
G3 X38.13451776649746 Y15.522842639593907 I-10.078680203045685 J14.829949238578681
G3 X40.28426395939086 Y18.1243654822335 I-12.680203045685278 J12.680203045685278
G3 X41.631979695431475 Y20.621827411167516 I-11.515228426395938 J7.824873096446701
G3 X42.44670050761421 Y23.34010152284264 I-12.862944162436548 J5.32741116751269
G3 X42.76395939086294 Y26.700507614213194 I-17.614213197969544 J3.3604060913705585
G3 X42.44670050761421 Y30.060913705583758 I-17.931472081218274 J0
G3 X41.631979695431475 Y32.77918781725888 I-13.67766497461929 J-2.6091370558375635
G3 X40.28426395939086 Y35.276649746192895 I-12.862944162436548 J-5.32741116751269
G3 X38.13451776649746 Y37.878172588832484 I-14.829949238578681 J-10.078680203045685
G1 X39.030203045685276 Y38.7741116751269 F1500
G3 X36.246192893401016 Y41.078680203045685 I-13.576142131979696 J-13.576142131979696 F1500
G3 X33.52030456852792 Y42.54822335025381 I-8.538071065989847 J-12.563451776649746
G3 X30.55329949238579 Y43.43654822335026 I-5.812182741116752 J-14.035532994923859
G3 X26.956852791878173 Y43.7741116751269 I-3.596446700507614 J-18.85786802030457
G3 X23.36040609137056 Y43.43654822335026 I0 J-19.19796954314721
G3 X20.390862944162436 Y42.54822335025381 I2.845177664974619 J-14.921319796954315
G3 X17.66751269035533 Y41.078680203045685 I5.812182741116752 J-14.035532994923859
G3 X14.883248730964468 Y38.7741116751269 I10.791878172588834 J-15.878172588832486
G3 X12.578680203045685 Y35.98984771573604 I13.576142131979696 J-13.576142131979696
G3 X11.109137055837564 Y33.263959390862944 I12.563451776649746 J-8.538071065989847
G3 X10.220812182741117 Y30.296954314720814 I14.035532994923859 J-5.812182741116752
G3 X9.880710659898478 Y26.700507614213194 I18.85786802030457 J-3.596446700507614
G3 X10.220812182741117 Y23.10406091370558 I19.19796954314721 J0
G3 X11.109137055837564 Y20.13705583756345 I14.921319796954315 J2.845177664974619
G3 X12.578680203045685 Y17.411167512690355 I14.035532994923859 J5.812182741116752
G3 X14.883248730964468 Y14.626903553299492 I15.878172588832486 J10.791878172588834
G3 X17.66751269035533 Y12.32233502538071 I13.576142131979696 J13.576142131979696
G3 X20.390862944162436 Y10.852791878172589 I8.538071065989847 J12.563451776649746
G3 X23.36040609137056 Y9.964467005076141 I5.812182741116752 J14.035532994923859
G3 X26.956852791878173 Y9.624365482233502 I3.596446700507614 J18.85786802030457
G3 X30.55329949238579 Y9.964467005076141 I0 J19.19796954314721
G3 X33.52030456852792 Y10.852791878172589 I-2.845177664974619 J14.921319796954315
G3 X36.246192893401016 Y12.32233502538071 I-5.812182741116752 J14.035532994923859
G3 X39.03045685279188 Y14.626903553299492 I-10.791878172588834 J15.878172588832486
G3 X41.33248730964467 Y17.411167512690355 I-13.576142131979696 J13.576142131979696
G3 X42.80456852791878 Y20.13705583756345 I-12.563451776649746 J8.538071065989847
G3 X43.69035532994924 Y23.10406091370558 I-14.035532994923859 J5.812182741116752
G3 X44.03045685279188 Y26.700507614213194 I-18.85786802030457 J3.596446700507614
G3 X43.69035532994924 Y30.296954314720814 I-19.19796954314721 J0
G3 X42.80456852791878 Y33.263959390862944 I-14.921319796954315 J-2.845177664974619
G3 X41.33248730964467 Y35.98984771573604 I-14.035532994923859 J-5.812182741116752
G3 X39.03045685279188 Y38.7741116751269 I-15.878172588832486 J-10.791878172588834
G1 X39.92690355329949 Y39.670812182741116 F1500
G3 X36.95939086294416 Y42.126903553299485 I-14.472081218274111 J-14.472081218274111 F1500
G3 X34.005076142131976 Y43.71827411167513 I-9.251269035532996 J-13.611675126903553
G3 X30.791878172588834 Y44.680203045685275 I-6.299492385786802 J-15.205583756345177
G3 X26.956852791878173 Y45.04314720812182 I-3.83502538071066 J-20.104060913705585
G3 X23.121827411167516 Y44.680203045685275 I0 J-20.467005076142133
G3 X19.906091370558375 Y43.71827411167513 I3.0837563451776653 J-16.16751269035533
G3 X16.95431472081218 Y42.126903553299485 I6.299492385786802 J-15.205583756345177
G3 X13.98477157360406 Y39.67005076142132 I11.50507614213198 J-16.928934010152282
G3 X11.530456852791877 Y36.703045685279186 I14.472081218274111 J-14.472081218274111
G3 X9.936548223350254 Y33.748730964467 I13.611675126903553 J-9.251269035532996
G3 X8.974619289340101 Y30.53553299492386 I15.205583756345177 J-6.299492385786802
G3 X8.614213197969544 Y26.700507614213194 I20.104060913705585 J-3.83502538071066
G3 X8.974619289340101 Y22.865482233502537 I20.467005076142133 J0
G3 X9.936548223350254 Y19.6497461928934 I16.16751269035533 J3.0837563451776653
G3 X11.530456852791877 Y16.69796954314721 I15.205583756345177 J6.299492385786802
G3 X13.98477157360406 Y13.730964467005077 I16.928934010152282 J11.50507614213198
G3 X16.95431472081218 Y11.274111675126903 I14.472081218274111 J14.472081218274111
G3 X19.906091370558375 Y9.68020304568528 I9.251269035532996 J13.611675126903553
G3 X23.121827411167516 Y8.720812182741117 I6.299492385786802 J15.205583756345177
G3 X26.956852791878173 Y8.357868020304569 I3.83502538071066 J20.104060913705585
G3 X30.791878172588834 Y8.720812182741117 I0 J20.467005076142133
G3 X34.005076142131976 Y9.68020304568528 I-3.0837563451776653 J16.16751269035533
G3 X36.95939086294416 Y11.274111675126903 I-6.299492385786802 J15.205583756345177
G3 X39.92639593908629 Y13.730964467005077 I-11.50507614213198 J16.928934010152282
G3 X42.38324873096447 Y16.69796954314721 I-14.472081218274111 J14.472081218274111
G3 X43.974619289340104 Y19.6497461928934 I-13.611675126903553 J9.251269035532996
G3 X44.93654822335025 Y22.865482233502537 I-15.205583756345177 J6.299492385786802
G3 X45.299492385786806 Y26.700507614213194 I-20.104060913705585 J3.83502538071066
G3 X44.93654822335025 Y30.53553299492386 I-20.467005076142133 J0
G3 X43.974619289340104 Y33.748730964467 I-16.16751269035533 J-3.0837563451776653
G3 X42.38324873096447 Y36.703045685279186 I-15.205583756345177 J-6.299492385786802
G3 X39.92639593908629 Y39.67005076142132 I-16.928934010152282 J-11.50507614213198
G1 X40.82335025380711 Y40.56751269035533 F1500
G3 X37.67258883248731 Y43.1751269035533 I-15.368020304568528 J-15.368020304568528 F1500
G3 X34.49238578680203 Y44.890862944162436 I-9.964467005076141 J-14.66243654822335
G3 X31.027918781725887 Y45.92639593908629 I-6.784263959390863 J-16.378172588832488
G3 X26.956852791878173 Y46.31218274111675 I-4.073604060913706 J-21.3502538071066
G3 X22.883248730964464 Y45.92639593908629 I0 J-21.736040609137056
G3 X19.421319796954315 Y44.890862944162436 I3.3223350253807107 J-17.413705583756347
G3 X16.241116751269036 Y43.1751269035533 I6.784263959390863 J-16.378172588832488
G3 X13.088832487309645 Y40.568527918781726 I12.218274111675127 J-17.97715736040609
G3 X10.482233502538072 Y37.41624365482234 I15.368020304568528 J-15.368020304568528
G3 X8.766497461928934 Y34.236040609137056 I14.66243654822335 J-9.964467005076141
G3 X7.730964467005076 Y30.77157360406091 I16.378172588832488 J-6.784263959390863
G3 X7.345177664974619 Y26.700507614213194 I21.3502538071066 J-4.073604060913706
G3 X7.730964467005076 Y22.626903553299492 I21.736040609137056 J0
G3 X8.766497461928934 Y19.164974619289342 I17.413705583756347 J3.3223350253807107
G3 X10.482233502538072 Y15.984771573604062 I16.378172588832488 J6.784263959390863
G3 X13.088832487309645 Y12.83248730964467 I17.97715736040609 J12.218274111675127
G3 X16.241116751269036 Y10.225888324873097 I15.368020304568528 J15.368020304568528
G3 X19.421319796954315 Y8.51015228426396 I9.964467005076141 J14.66243654822335
G3 X22.883248730964464 Y7.474619289340102 I6.784263959390863 J16.378172588832488
G3 X26.956852791878173 Y7.088832487309644 I4.073604060913706 J21.3502538071066
G3 X31.027918781725887 Y7.474619289340102 I0 J21.736040609137056
G3 X34.49238578680203 Y8.51015228426396 I-3.3223350253807107 J17.413705583756347
G3 X37.67258883248731 Y10.225888324873097 I-6.784263959390863 J16.378172588832488
G3 X40.82233502538071 Y12.83248730964467 I-12.218274111675127 J17.97715736040609
G3 X43.431472081218274 Y15.984771573604062 I-15.368020304568528 J15.368020304568528
G3 X45.14720812182741 Y19.164974619289342 I-14.66243654822335 J9.964467005076141
G3 X46.18274111675127 Y22.626903553299492 I-16.378172588832488 J6.784263959390863
G3 X46.568527918781726 Y26.700507614213194 I-21.3502538071066 J4.073604060913706
G3 X46.18274111675127 Y30.77157360406091 I-21.736040609137056 J0
G3 X45.14720812182741 Y34.236040609137056 I-17.413705583756347 J-3.3223350253807107
G3 X43.431472081218274 Y37.41624365482234 I-16.378172588832488 J-6.784263959390863
G3 X40.82233502538071 Y40.568527918781726 I-17.97715736040609 J-12.218274111675127
G1 X41.72005076142132 Y41.46395939086295 F1500
G3 X38.38324873096447 Y44.223350253807105 I-16.266497461928935 J-16.266497461928935 F1500
G3 X34.977157360406096 Y46.06345177664974 I-10.67766497461929 J-15.710659898477157
G3 X31.26649746192893 Y47.172588832487314 I-7.269035532994924 J-17.548223350253807
G3 X26.956852791878173 Y47.57868020304569 I-4.309644670050761 J-22.596446700507613
G3 X22.64720812182741 Y47.172588832487314 I0 J-23.00253807106599
G3 X18.936548223350254 Y46.06345177664974 I3.558375634517766 J-18.65736040609137
G3 X15.527918781725889 Y44.223350253807105 I7.269035532994924 J-17.548223350253807
G3 X12.192893401015228 Y41.46446700507614 I12.928934010152284 J-19.0253807106599
G3 X9.434010152284264 Y38.129441624365484 I16.266497461928935 J-16.266497461928935
G3 X7.593908629441625 Y34.72081218274112 I15.710659898477157 J-10.67766497461929
G3 X6.484771573604061 Y31.01015228426396 I17.548223350253807 J-7.269035532994924
G3 X6.076142131979695 Y26.700507614213194 I22.596446700507613 J-4.309644670050761
G3 X6.484771573604061 Y22.390862944162436 I23.00253807106599 J0
G3 X7.593908629441625 Y18.68020304568528 I18.65736040609137 J3.558375634517766
G3 X9.434010152284264 Y15.271573604060913 I17.548223350253807 J7.269035532994924
G3 X12.192893401015228 Y11.936548223350254 I19.0253807106599 J12.928934010152284
G3 X15.527918781725889 Y9.17766497461929 I16.266497461928935 J16.266497461928935
G3 X18.936548223350254 Y7.337563451776649 I10.67766497461929 J15.710659898477157
G3 X22.64720812182741 Y6.228426395939087 I7.269035532994924 J17.548223350253807
G3 X26.956852791878173 Y5.822335025380711 I4.309644670050761 J22.596446700507613
G3 X31.26649746192893 Y6.228426395939087 I0 J23.00253807106599
G3 X34.977157360406096 Y7.337563451776649 I-3.558375634517766 J18.65736040609137
G3 X38.38324873096447 Y9.17766497461929 I-7.269035532994924 J17.548223350253807
G3 X41.72081218274112 Y11.936548223350254 I-12.928934010152284 J19.0253807106599
G3 X44.47969543147208 Y15.271573604060913 I-16.266497461928935 J16.266497461928935
G3 X46.31725888324873 Y18.68020304568528 I-15.710659898477157 J10.67766497461929
G3 X47.42893401015229 Y22.390862944162436 I-17.548223350253807 J7.269035532994924
G3 X47.83502538071066 Y26.700507614213194 I-22.596446700507613 J4.309644670050761
G3 X47.42893401015229 Y31.01015228426396 I-23.00253807106599 J0
G3 X46.31725888324873 Y34.72081218274112 I-18.65736040609137 J-3.558375634517766
G3 X44.47969543147208 Y38.129441624365484 I-17.548223350253807 J-7.269035532994924
G3 X41.72081218274112 Y41.46446700507614 I-19.0253807106599 J-12.928934010152284
G1 X42.61675126903553 Y42.36065989847716 F1500
G3 X39.09644670050761 Y45.27157360406092 I-17.16243654822335 J-17.16243654822335 F1500
G3 X35.46192893401015 Y47.233502538071065 I-11.390862944162436 J-16.758883248730964
G3 X31.505076142131976 Y48.41878172588832 I-7.753807106598984 J-18.720812182741117
G3 X26.956852791878173 Y48.84771573604061 I-4.548223350253807 J-23.840101522842637
G3 X22.408629441624367 Y48.41878172588832 I0 J-24.271573604060915
G3 X18.451776649746193 Y47.233502538071065 I3.7969543147208125 J-19.903553299492383
G3 X14.81472081218274 Y45.27157360406092 I7.753807106598984 J-18.720812182741117
G3 X11.296954314720812 Y42.36040609137056 I13.642131979695431 J-20.073604060913706
G3 X8.383248730964466 Y38.84010152284264 I17.16243654822335 J-17.16243654822335
G3 X6.423857868020305 Y35.20558375634518 I16.758883248730964 J-11.390862944162436
G3 X5.238578680203045 Y31.248730964467004 I18.720812182741117 J-7.753807106598984
G3 X4.809644670050762 Y26.700507614213194 I23.840101522842637 J-4.548223350253807
G3 X5.238578680203045 Y22.15228426395939 I24.271573604060915 J0
G3 X6.423857868020305 Y18.195431472081218 I19.903553299492383 J3.7969543147208125
G3 X8.383248730964466 Y14.558375634517766 I18.720812182741117 J7.753807106598984
G3 X11.296954314720812 Y11.040609137055837 I20.073604060913706 J13.642131979695431
G3 X14.81472081218274 Y8.129441624365482 I17.16243654822335 J17.16243654822335
G3 X18.451776649746193 Y6.167512690355331 I11.390862944162436 J16.758883248730964
G3 X22.408629441624367 Y4.982233502538071 I7.753807106598984 J18.720812182741117
G3 X26.956852791878173 Y4.553299492385786 I4.548223350253807 J23.840101522842637
G3 X31.505076142131976 Y4.982233502538071 I0 J24.271573604060915
G3 X35.46192893401015 Y6.167512690355331 I-3.7969543147208125 J19.903553299492383
G3 X39.09644670050761 Y8.129441624365482 I-7.753807106598984 J18.720812182741117
G3 X42.61675126903553 Y11.040609137055837 I-13.642131979695431 J20.073604060913706
G3 X45.52791878172589 Y14.558375634517766 I-17.16243654822335 J17.16243654822335
G3 X47.48984771573604 Y18.195431472081218 I-16.758883248730964 J11.390862944162436
G3 X48.67258883248731 Y22.15228426395939 I-18.720812182741117 J7.753807106598984
G3 X49.10406091370558 Y26.700507614213194 I-23.840101522842637 J4.548223350253807
G3 X48.67258883248731 Y31.248730964467004 I-24.271573604060915 J0
G3 X47.48984771573604 Y35.20558375634518 I-19.903553299492383 J-3.7969543147208125
G3 X45.52791878172589 Y38.84010152284264 I-18.720812182741117 J-7.753807106598984
G3 X42.61675126903553 Y42.36040609137056 I-20.073604060913706 J-13.642131979695431
G1 X43.51319796954315 Y43.25736040609137 F1500
G3 X39.80964467005076 Y46.32233502538071 I-18.058375634517766 J-18.058375634517766 F1500
G3 X35.94670050761421 Y48.40609137055837 I-12.101522842639593 J-17.807106598984774
G3 X31.741116751269036 Y49.662436548223354 I-8.238578680203046 J-19.890862944162436
G3 X26.956852791878173 Y50.11421319796955 I-4.784263959390863 J-25.086294416243653
G3 X22.170050761421322 Y49.662436548223354 I0 J-25.538071065989847
G3 X17.967005076142133 Y48.40609137055837 I4.032994923857868 J-21.1497461928934
G3 X14.104060913705583 Y46.32233502538071 I8.238578680203046 J-19.890862944162436
G3 X10.398477157360407 Y43.25634517766497 I14.355329949238577 J-21.121827411167512
G3 X7.33502538071066 Y39.55329949238579 I18.058375634517766 J-18.058375634517766
G3 X5.251269035532995 Y35.690355329949234 I17.807106598984774 J-12.101522842639593
G3 X3.99492385786802 Y31.484771573604064 I19.890862944162436 J-8.238578680203046
G3 X3.5406091370558372 Y26.700507614213194 I25.086294416243653 J-4.784263959390863
G3 X3.99492385786802 Y21.916243654822335 I25.538071065989847 J0
G3 X5.251269035532995 Y17.710659898477157 I21.1497461928934 J4.032994923857868
G3 X7.33502538071066 Y13.847715736040609 I19.890862944162436 J8.238578680203046
G3 X10.398477157360407 Y10.144670050761421 I21.121827411167512 J14.355329949238577
G3 X14.104060913705583 Y7.0786802030456855 I18.058375634517766 J18.058375634517766
G3 X17.967005076142133 Y4.99492385786802 I12.101522842639593 J17.807106598984774
G3 X22.170050761421322 Y3.738578680203046 I8.238578680203046 J19.890862944162436
G3 X26.956852791878173 Y3.284263959390863 I4.784263959390863 J25.086294416243653
G3 X31.741116751269036 Y3.738578680203046 I0 J25.538071065989847
G3 X35.94670050761421 Y4.99492385786802 I-4.032994923857868 J21.1497461928934
G3 X39.80964467005076 Y7.0786802030456855 I-8.238578680203046 J19.890862944162436
G3 X43.512690355329944 Y10.144670050761421 I-14.355329949238577 J21.121827411167512
G3 X46.576142131979694 Y13.847715736040609 I-18.058375634517766 J18.058375634517766
G3 X48.66243654822335 Y17.710659898477157 I-17.807106598984774 J12.101522842639593
G3 X49.91878172588833 Y21.916243654822335 I-19.890862944162436 J8.238578680203046
G3 X50.370558375634516 Y26.700507614213194 I-25.086294416243653 J4.784263959390863
G3 X49.91878172588833 Y31.484771573604064 I-25.538071065989847 J0
G3 X48.66243654822335 Y35.690355329949234 I-21.1497461928934 J-4.032994923857868
G3 X46.576142131979694 Y39.55329949238579 I-19.890862944162436 J-8.238578680203046
G3 X43.512690355329944 Y43.25634517766497 I-21.121827411167512 J-14.355329949238577
G0 Z15
G0 X27.197208121827412 Y27.280964467005077
G1 Z-3 F800
G3 X26.95431472081218 Y27.29187817258883 I-0.23857868020304568 J-2.705583756345178 F1500
G3 X26.715736040609137 Y27.281725888324875 I-0.005076142131979696 J-2.715736040609137
G3 X26.538071065989847 Y27.116751269035536 I1.7436548223350254 J-2.0812182741116754
G3 X26.375634517766496 Y26.941624365482234 I1.916243654822335 J-1.9238578680203045
G3 X26.365482233502537 Y26.703045685279186 I2.705583756345178 J-0.23857868020304568
G1 X26.365482233502537 Y26.69796954314721
G1 X26.365482233502537 Y26.69289340101523
G3 X26.375634517766496 Y26.45939086294416 I2.715736040609137 J0
G3 X26.54060913705584 Y26.281725888324875 I2.0812182741116754 J1.7436548223350254
G3 X26.715736040609137 Y26.11928934010152 I1.9238578680203045 J1.916243654822335
G3 X26.95939086294416 Y26.109137055837564 I0.23857868020304568 J2.705583756345178
G3 X27.195431472081218 Y26.11928934010152 I0.005076142131979696 J2.715736040609137
G3 X27.375634517766496 Y26.284263959390863 I-1.7436548223350254 J2.0812182741116754
G3 X27.538071065989847 Y26.45939086294416 I-1.916243654822335 J1.9238578680203045
G3 X27.548223350253807 Y26.69796954314721 I-2.705583756345178 J0.23857868020304568
G1 X27.548223350253807 Y26.703045685279186
G1 X27.548223350253807 Y26.705583756345177
G3 X27.538071065989847 Y26.941624365482234 I-2.715736040609137 J0
G3 X27.373096446700508 Y27.119289340101524 I-2.0812182741116754 J-1.7436548223350254
G3 X27.197969543147206 Y27.281725888324875 I-1.9238578680203045 J-1.916243654822335
G1 X28.270812182741118 Y28.01497461928934 F1500
G3 X27.69796954314721 Y28.48984771573604 I-2.8197969543147208 J-2.812182741116751 F1500
G3 X26.956852791878173 Y28.558375634517766 I-0.7385786802030457 J-3.913705583756345
G3 X26.215736040609137 Y28.492385786802032 I-0.005076142131979696 J-3.982233502538071
G3 X25.64213197969543 Y28.01522842639594 I2.2436548223350252 J-3.2893401015228423
G3 X25.16751269035533 Y27.444162436548222 I2.812182741116751 J-2.8197969543147208
G3 X25.096446700507613 Y26.703045685279186 I3.913705583756345 J-0.7385786802030457
G1 X25.096446700507613 Y26.700507614213194
G1 X25.096446700507613 Y26.69289340101523
G3 X25.16497461928934 Y25.95939086294416 I3.982233502538071 J0
G3 X25.64213197969543 Y25.385786802030456 I3.2893401015228423 J2.2436548223350252
G3 X26.213197969543145 Y24.911167512690355 I2.8197969543147208 J2.812182741116751
G3 X26.956852791878173 Y24.84263959390863 I0.7385786802030457 J3.913705583756345
G3 X27.69796954314721 Y24.908629441624367 I0.005076142131979696 J3.982233502538071
G3 X28.27157360406091 Y25.385786802030456 I-2.2436548223350252 J3.2893401015228423
G3 X28.746192893401016 Y25.956852791878173 I-2.812182741116751 J2.8197969543147208
G3 X28.81472081218274 Y26.69796954314721 I-3.913705583756345 J0.7385786802030457
G1 X28.81472081218274 Y26.700507614213194
G1 X28.81472081218274 Y26.705583756345177
G3 X28.746192893401016 Y27.441624365482234 I-3.982233502538071 J0
G3 X28.27157360406091 Y28.01522842639594 I-3.2893401015228423 J-2.2436548223350252
G1 X29.16751269035533 Y28.911421319796954 F1500
G3 X28.406091370558375 Y29.54060913705584 I-3.713197969543147 J-3.713197969543147 F1500
G3 X28.18274111675127 Y29.66243654822335 I-0.6979695431472082 J-1.0279187817258884
G3 X27.939086294416242 Y29.733502538071065 I-0.47461928934010156 J-1.1472081218274113
G3 X26.956852791878173 Y29.82741116751269 I-0.9847715736040609 J-5.15736040609137
G3 X25.97208121827411 Y29.733502538071065 I0 J-5.251269035532995
G3 X25.730964467005077 Y29.66243654822335 I0.23350253807106597 J-1.2208121827411167
G3 X25.507614213197968 Y29.54060913705584 I0.47461928934010156 J-1.1472081218274113
G3 X24.746192893401012 Y28.911167512690355 I2.9517766497461926 J-4.342639593908629
G3 X24.114213197969544 Y28.149746192893403 I3.713197969543147 J-3.713197969543147
G3 X23.99492385786802 Y27.92639593908629 I1.0279187817258884 J-0.6979695431472082
G3 X23.921319796954315 Y27.685279187817258 I1.1472081218274113 J-0.47461928934010156
G3 X23.82994923857868 Y26.700507614213194 I5.15736040609137 J-0.9847715736040609
G3 X23.921319796954315 Y25.715736040609137 I5.251269035532995 J0
G3 X23.99492385786802 Y25.474619289340104 I1.2208121827411167 J0.23350253807106597
G3 X24.114213197969544 Y25.251269035532996 I1.1472081218274113 J0.47461928934010156
G3 X24.746192893401012 Y24.48984771573604 I4.342639593908629 J2.9517766497461926
G3 X25.507614213197968 Y23.860406091370557 I3.713197969543147 J3.713197969543147
G3 X25.730964467005077 Y23.738578680203048 I0.6979695431472082 J1.0279187817258884
G3 X25.97208121827411 Y23.667512690355327 I0.47461928934010156 J1.1472081218274113
G3 X26.956852791878173 Y23.573604060913706 I0.9847715736040609 J5.15736040609137
G3 X27.939086294416242 Y23.667512690355327 I0 J5.251269035532995
G3 X28.18274111675127 Y23.738578680203048 I-0.23350253807106597 J1.2208121827411167
G3 X28.406091370558375 Y23.860406091370557 I-0.47461928934010156 J1.1472081218274113
G3 X29.16751269035533 Y24.48984771573604 I-2.9517766497461926 J4.342639593908629
G3 X29.79695431472081 Y25.251269035532996 I-3.713197969543147 J3.713197969543147
G3 X29.918781725888323 Y25.474619289340104 I-1.0279187817258884 J0.6979695431472082
G3 X29.98984771573604 Y25.715736040609137 I-1.1472081218274113 J0.47461928934010156
G3 X30.08375634517766 Y26.700507614213194 I-5.15736040609137 J0.9847715736040609
G3 X29.98984771573604 Y27.685279187817258 I-5.251269035532995 J0
G3 X29.918781725888323 Y27.92639593908629 I-1.2208121827411167 J-0.23350253807106597
G3 X29.79695431472081 Y28.149746192893403 I-1.1472081218274113 J-0.47461928934010156
G3 X29.16751269035533 Y28.911167512690355 I-4.342639593908629 J-2.9517766497461926
G1 X30.064213197969544 Y29.808121827411167 F1500
G3 X29.119289340101524 Y30.591370558375633 I-4.6091370558375635 J-4.6091370558375635 F1500
G3 X28.667512690355327 Y30.83248730964467 I-1.4111675126903553 J-2.0761421319796955
G3 X28.177664974619287 Y30.97969543147208 I-0.9619289340101522 J-2.3197969543147208
G3 X26.956852791878173 Y31.096446700507613 I-1.2208121827411167 J-6.403553299492386
G3 X25.736040609137056 Y30.97969543147208 I0 J-6.520304568527919
G3 X25.243654822335024 Y30.83248730964467 I0.46954314720812185 J-2.467005076142132
G3 X24.794416243654823 Y30.591370558375633 I0.9619289340101522 J-2.3197969543147208
G3 X23.84771573604061 Y29.80710659898477 I3.66497461928934 J-5.3908629441624365
G3 X23.065989847715738 Y28.86294416243655 I4.6091370558375635 J-4.6091370558375635
G3 X22.82233502538071 Y28.411167512690355 I2.0761421319796955 J-1.4111675126903553
G3 X22.67766497461929 Y27.921319796954315 I2.3197969543147208 J-0.9619289340101522
G3 X22.560913705583758 Y26.700507614213194 I6.403553299492386 J-1.2208121827411167
G3 X22.67766497461929 Y25.47969543147208 I6.520304568527919 J0
G3 X22.82233502538071 Y24.98730964467005 I2.467005076142132 J0.46954314720812185
G3 X23.065989847715738 Y24.538071065989847 I2.3197969543147208 J0.9619289340101522
G3 X23.84771573604061 Y23.59390862944162 I5.3908629441624365 J3.66497461928934
G3 X24.794416243654823 Y22.80964467005076 I4.6091370558375635 J4.6091370558375635
G3 X25.243654822335024 Y22.568527918781726 I1.4111675126903553 J2.0761421319796955
G3 X25.736040609137056 Y22.421319796954315 I0.9619289340101522 J2.3197969543147208
G3 X26.956852791878173 Y22.304568527918782 I1.2208121827411167 J6.403553299492386
G3 X28.177664974619287 Y22.421319796954315 I0 J6.520304568527919
G3 X28.667512690355327 Y22.568527918781726 I-0.46954314720812185 J2.467005076142132
G3 X29.119289340101524 Y22.80964467005076 I-0.9619289340101522 J2.3197969543147208
G3 X30.06345177664975 Y23.59390862944162 I-3.66497461928934 J5.3908629441624365
G3 X30.84517766497462 Y24.538071065989847 I-4.6091370558375635 J4.6091370558375635
G3 X31.088832487309645 Y24.98730964467005 I-2.0761421319796955 J1.4111675126903553
G3 X31.236040609137056 Y25.47969543147208 I-2.3197969543147208 J0.9619289340101522
G3 X31.3502538071066 Y26.700507614213194 I-6.403553299492386 J1.2208121827411167
G3 X31.236040609137056 Y27.921319796954315 I-6.520304568527919 J0
G3 X31.088832487309645 Y28.411167512690355 I-2.467005076142132 J-0.46954314720812185
G3 X30.84517766497462 Y28.86294416243655 I-2.3197969543147208 J-0.9619289340101522
G3 X30.06345177664975 Y29.80710659898477 I-5.3908629441624365 J-3.66497461928934
G1 X30.960659898477157 Y30.70482233502538 F1500
G3 X29.83248730964467 Y31.63959390862944 I-5.50507614213198 J-5.50507614213198 F1500
G3 X29.152284263959388 Y32.00507614213198 I-2.1243654822335025 J-3.1243654822335025
G3 X28.41624365482233 Y32.2258883248731 I-1.4467005076142132 J-3.4923857868020303
G3 X26.956852791878173 Y32.36294416243655 I-1.4593908629441623 J-7.649746192893401
G3 X25.497461928934012 Y32.2258883248731 I0 J-7.786802030456853
G3 X24.758883248730964 Y32.00507614213198 I0.7081218274111676 J-3.713197969543147
G3 X24.081218274111677 Y31.63959390862944 I1.4467005076142132 J-3.4923857868020303
G3 X22.951776649746193 Y30.705583756345177 I4.378172588832488 J-6.441624365482234
G3 X22.01776649746193 Y29.576142131979694 I5.50507614213198 J-5.50507614213198
G3 X21.652284263959388 Y28.898477157360407 I3.1243654822335025 J-2.1243654822335025
G3 X21.431472081218274 Y28.15989847715736 I3.4923857868020303 J-1.4467005076142132
G3 X21.294416243654823 Y26.700507614213194 I7.649746192893401 J-1.4593908629441623
G3 X21.431472081218274 Y25.241116751269036 I7.786802030456853 J0
G3 X21.652284263959388 Y24.502538071065988 I3.713197969543147 J0.7081218274111676
G3 X22.01776649746193 Y23.8248730964467 I3.4923857868020303 J1.4467005076142132
G3 X22.951776649746193 Y22.695431472081218 I6.441624365482234 J4.378172588832488
G3 X24.081218274111677 Y21.761421319796955 I5.50507614213198 J5.50507614213198
G3 X24.758883248730964 Y21.395939086294415 I2.1243654822335025 J3.1243654822335025
G3 X25.497461928934012 Y21.1751269035533 I1.4467005076142132 J3.4923857868020303
G3 X26.956852791878173 Y21.03807106598985 I1.4593908629441623 J7.649746192893401
G3 X28.41624365482233 Y21.1751269035533 I0 J7.786802030456853
G3 X29.152284263959388 Y21.395939086294415 I-0.7081218274111676 J3.713197969543147
G3 X29.83248730964467 Y21.761421319796955 I-1.4467005076142132 J3.4923857868020303
G3 X30.961928934010153 Y22.695431472081218 I-4.378172588832488 J6.441624365482234
G3 X31.89593908629442 Y23.8248730964467 I-5.50507614213198 J5.50507614213198
G3 X32.26142131979695 Y24.502538071065988 I-3.1243654822335025 J2.1243654822335025
G3 X32.48223350253807 Y25.241116751269036 I-3.4923857868020303 J1.4467005076142132
G3 X32.619289340101524 Y26.700507614213194 I-7.649746192893401 J1.4593908629441623
G3 X32.48223350253807 Y28.15989847715736 I-7.786802030456853 J0
G3 X32.26142131979695 Y28.898477157360407 I-3.713197969543147 J-0.7081218274111676
G3 X31.89593908629442 Y29.576142131979694 I-3.4923857868020303 J-1.4467005076142132
G3 X30.961928934010153 Y30.705583756345177 I-6.441624365482234 J-4.378172588832488
G1 X31.85736040609137 Y31.601269035532994 F1500
G3 X30.543147208121827 Y32.68781725888325 I-6.403553299492386 J-6.403553299492386 F1500
G3 X29.639593908629443 Y33.1751269035533 I-2.8375634517766497 J-4.175126903553299
G3 X28.65228426395939 Y33.47208121827411 I-1.9314720812182742 J-4.662436548223351
G3 X26.956852791878173 Y33.63197969543147 I-1.6954314720812182 J-8.895939086294417
G3 X25.258883248730967 Y33.47208121827411 I0 J-9.055837563451776
G3 X24.274111675126903 Y33.1751269035533 I0.9467005076142132 J-4.956852791878172
G3 X23.368020304568525 Y32.68781725888325 I1.9314720812182742 J-4.662436548223351
G3 X22.055837563451774 Y31.601522842639596 I5.088832487309645 J-7.489847715736041
G3 X20.96954314720812 Y30.289340101522843 I6.403553299492386 J-6.403553299492386
G3 X20.47969543147208 Y29.383248730964468 I4.175126903553299 J-2.8375634517766497
G3 X20.185279187817258 Y28.39593908629442 I4.662436548223351 J-1.9314720812182742
G3 X20.0253807106599 Y26.700507614213194 I8.895939086294417 J-1.6954314720812182
G3 X20.185279187817258 Y25.00253807106599 I9.055837563451776 J0
G3 X20.47969543147208 Y24.017766497461928 I4.956852791878172 J0.9467005076142132
G3 X20.96954314720812 Y23.111675126903553 I4.662436548223351 J1.9314720812182742
G3 X22.055837563451774 Y21.7994923857868 I7.489847715736041 J5.088832487309645
G3 X23.368020304568525 Y20.71319796954315 I6.403553299492386 J6.403553299492386
G3 X24.274111675126903 Y20.22335025380711 I2.8375634517766497 J4.175126903553299
G3 X25.258883248730967 Y19.928934010152282 I1.9314720812182742 J4.662436548223351
G3 X26.956852791878173 Y19.769035532994923 I1.6954314720812182 J8.895939086294417
G3 X28.65228426395939 Y19.928934010152282 I0 J9.055837563451776
G3 X29.639593908629443 Y20.22335025380711 I-0.9467005076142132 J4.956852791878172
G3 X30.543147208121827 Y20.71319796954315 I-1.9314720812182742 J4.662436548223351
G3 X31.85786802030457 Y21.7994923857868 I-5.088832487309645 J7.489847715736041
G3 X32.944162436548226 Y23.111675126903553 I-6.403553299492386 J6.403553299492386
G3 X33.431472081218274 Y24.017766497461928 I-4.175126903553299 J2.8375634517766497
G3 X33.7258883248731 Y25.00253807106599 I-4.662436548223351 J1.9314720812182742
G3 X33.888324873096444 Y26.700507614213194 I-8.895939086294417 J1.6954314720812182
G3 X33.7258883248731 Y28.39593908629442 I-9.055837563451776 J0
G3 X33.431472081218274 Y29.383248730964468 I-4.956852791878172 J-0.9467005076142132
G3 X32.944162436548226 Y30.289340101522843 I-4.662436548223351 J-1.9314720812182742
G3 X31.85786802030457 Y31.601522842639596 I-7.489847715736041 J-5.088832487309645
G1 X32.75406091370559 Y32.49796954314721 F1500
G3 X31.256345177664976 Y33.736040609137056 I-7.299492385786802 J-7.299492385786802 F1500
G3 X30.124365482233504 Y34.347715736040605 I-3.550761421319797 J-5.223350253807107
G3 X28.890862944162436 Y34.71573604060914 I-2.416243654822335 J-5.83502538071066
G3 X26.956852791878173 Y34.89847715736041 I-1.934010152284264 J-10.13959390862944
G3 X25.022842639593907 Y34.71573604060914 I0 J-10.322335025380712
G3 X23.789340101522846 Y34.347715736040605 I1.182741116751269 J-6.203045685279188
G3 X22.654822335025383 Y33.736040609137056 I2.416243654822335 J-5.83502538071066
G3 X21.159898477157363 Y32.49746192893401 I5.802030456852791 J-8.538071065989847
G3 X19.921319796954315 Y31 I7.299492385786802 J-7.299492385786802
G3 X19.309644670050762 Y29.86802030456853 I5.223350253807107 J-3.550761421319797
G3 X18.939086294416242 Y28.634517766497463 I5.83502538071066 J-2.416243654822335
G3 X18.756345177664976 Y26.700507614213194 I10.13959390862944 J-1.934010152284264
G3 X18.939086294416242 Y24.766497461928935 I10.322335025380712 J0
G3 X19.309644670050762 Y23.532994923857867 I6.203045685279188 J1.182741116751269
G3 X19.921319796954315 Y22.401015228426395 I5.83502538071066 J2.416243654822335
G3 X21.159898477157363 Y20.903553299492387 I8.538071065989847 J5.802030456852791
G3 X22.654822335025383 Y19.66497461928934 I7.299492385786802 J7.299492385786802
G3 X23.789340101522846 Y19.053299492385786 I3.550761421319797 J5.223350253807107
G3 X25.022842639593907 Y18.685279187817258 I2.416243654822335 J5.83502538071066
G3 X26.956852791878173 Y18.50253807106599 I1.934010152284264 J10.13959390862944
G3 X28.890862944162436 Y18.685279187817258 I0 J10.322335025380712
G3 X30.124365482233504 Y19.053299492385786 I-1.182741116751269 J6.203045685279188
G3 X31.256345177664976 Y19.66497461928934 I-2.416243654822335 J5.83502538071066
G3 X32.753807106598984 Y20.903553299492387 I-5.802030456852791 J8.538071065989847
G3 X33.99238578680203 Y22.401015228426395 I-7.299492385786802 J7.299492385786802
G3 X34.60406091370559 Y23.532994923857867 I-5.223350253807107 J3.550761421319797
G3 X34.97208121827411 Y24.766497461928935 I-5.83502538071066 J2.416243654822335
G3 X35.15482233502538 Y26.700507614213194 I-10.13959390862944 J1.934010152284264
G3 X34.97208121827411 Y28.634517766497463 I-10.322335025380712 J0
G3 X34.60406091370559 Y29.86802030456853 I-6.203045685279188 J-1.182741116751269
G3 X33.99238578680203 Y31 I-5.83502538071066 J-2.416243654822335
G3 X32.753807106598984 Y32.49746192893401 I-8.538071065989847 J-5.802030456852791
G1 X33.6505076142132 Y33.39467005076142 F1500
G3 X31.969543147208125 Y34.78426395939086 I-8.195431472081218 J-8.195431472081218 F1500
G3 X30.609137055837564 Y35.52030456852792 I-4.261421319796954 J-6.271573604060913
G3 X29.126903553299492 Y35.96192893401015 I-2.9010152284263957 J-7.00507614213198
G3 X26.956852791878173 Y36.16751269035533 I-2.1725888324873095 J-11.385786802030458
G3 X24.784263959390863 Y35.96192893401015 I0 J-11.591370558375635
G3 X23.304568527918782 Y35.52030456852792 I1.4213197969543148 J-7.449238578680203
G3 X21.944162436548226 Y34.78426395939086 I2.9010152284263957 J-7.00507614213198
G3 X20.261421319796952 Y33.39340101522843 I6.5152284263959395 J-9.586294416243655
G3 X18.87055837563452 Y31.713197969543145 I8.195431472081218 J-8.195431472081218
G3 X18.13705583756345 Y30.35279187817259 I6.271573604060913 J-4.261421319796954
G3 X17.695431472081218 Y28.873096446700508 I7.00507614213198 J-2.9010152284263957
G3 X17.48984771573604 Y26.700507614213194 I11.385786802030458 J-2.1725888324873095
G3 X17.695431472081218 Y24.527918781725887 I11.591370558375635 J0
G3 X18.13705583756345 Y23.04822335025381 I7.449238578680203 J1.4213197969543148
G3 X18.87055837563452 Y21.68781725888325 I7.00507614213198 J2.9010152284263957
G3 X20.261421319796952 Y20.00507614213198 I9.586294416243655 J6.5152284263959395
G3 X21.944162436548226 Y18.616751269035532 I8.195431472081218 J8.195431472081218
G3 X23.304568527918782 Y17.880710659898476 I4.261421319796954 J6.271573604060913
G3 X24.784263959390863 Y17.439086294416242 I2.9010152284263957 J7.00507614213198
G3 X26.956852791878173 Y17.233502538071065 I2.1725888324873095 J11.385786802030458
G3 X29.126903553299492 Y17.439086294416242 I0 J11.591370558375635
G3 X30.609137055837564 Y17.880710659898476 I-1.4213197969543148 J7.449238578680203
G3 X31.969543147208125 Y18.616751269035532 I-2.9010152284263957 J7.00507614213198
G3 X33.6497461928934 Y20.00507614213198 I-6.5152284263959395 J9.586294416243655
G3 X35.04060913705584 Y21.68781725888325 I-8.195431472081218 J8.195431472081218
G3 X35.7741116751269 Y23.04822335025381 I-6.271573604060913 J4.261421319796954
G3 X36.21827411167513 Y24.527918781725887 I-7.00507614213198 J2.9010152284263957
G3 X36.423857868020306 Y26.700507614213194 I-11.385786802030458 J2.1725888324873095
G3 X36.21827411167513 Y28.873096446700508 I-11.591370558375635 J0
G3 X35.7741116751269 Y30.35279187817259 I-7.449238578680203 J-1.4213197969543148
G3 X35.04060913705584 Y31.713197969543145 I-7.00507614213198 J-2.9010152284263957
G3 X33.6497461928934 Y33.39340101522843 I-9.586294416243655 J-6.5152284263959395
G1 X34.54720812182741 Y34.29111675126904 F1500
G3 X32.68274111675127 Y35.83502538071066 I-9.093908629441623 J-9.093908629441623 F1500
G3 X31.09390862944162 Y36.69035532994924 I-4.974619289340102 J-7.319796954314722
G3 X29.36548223350254 Y37.20812182741117 I-3.3883248730964466 J-8.17766497461929
G3 X26.956852791878173 Y37.43654822335025 I-2.4086294416243654 J-12.631979695431472
G3 X24.548223350253807 Y37.20812182741117 I0 J-12.857868020304569
G3 X22.81725888324873 Y36.69035532994924 I1.6573604060913705 J-8.695431472081218
G3 X21.230964467005077 Y35.83502538071066 I3.3883248730964466 J-8.17766497461929
G3 X19.365482233502537 Y34.29187817258884 I7.228426395939086 J-10.634517766497462
G3 X17.82233502538071 Y32.42639593908629 I9.093908629441623 J-9.093908629441623
G3 X16.967005076142133 Y30.83756345177665 I7.319796954314722 J-4.974619289340102
G3 X16.449238578680202 Y29.10913705583756 I8.17766497461929 J-3.3883248730964466
G3 X16.220812182741117 Y26.700507614213194 I12.631979695431472 J-2.4086294416243654
G3 X16.449238578680202 Y24.291878172588834 I12.857868020304569 J0
G3 X16.967005076142133 Y22.56345177664975 I8.695431472081218 J1.6573604060913705
G3 X17.82233502538071 Y20.9746192893401 I8.17766497461929 J3.3883248730964466
G3 X19.365482233502537 Y19.109137055837564 I10.634517766497462 J7.228426395939086
G3 X21.230964467005077 Y17.565989847715734 I9.093908629441623 J9.093908629441623
G3 X22.81725888324873 Y16.710659898477157 I4.974619289340102 J7.319796954314722
G3 X24.548223350253807 Y16.19289340101523 I3.3883248730964466 J8.17766497461929
G3 X26.956852791878173 Y15.964467005076141 I2.4086294416243654 J12.631979695431472
G3 X29.36548223350254 Y16.19289340101523 I0 J12.857868020304569
G3 X31.09390862944162 Y16.710659898477157 I-1.6573604060913705 J8.695431472081218
G3 X32.68274111675127 Y17.565989847715734 I-3.3883248730964466 J8.17766497461929
G3 X34.54822335025381 Y19.109137055837564 I-7.228426395939086 J10.634517766497462
G3 X36.088832487309645 Y20.9746192893401 I-9.093908629441623 J9.093908629441623
G3 X36.94670050761421 Y22.56345177664975 I-7.319796954314722 J4.974619289340102
G3 X37.464467005076145 Y24.291878172588834 I-8.17766497461929 J3.3883248730964466
G3 X37.69035532994924 Y26.700507614213194 I-12.631979695431472 J2.4086294416243654
G3 X37.464467005076145 Y29.10913705583756 I-12.857868020304569 J0
G3 X36.94670050761421 Y30.83756345177665 I-8.695431472081218 J-1.6573604060913705
G3 X36.088832487309645 Y32.42639593908629 I-8.17766497461929 J-3.3883248730964466
G3 X34.54822335025381 Y34.29187817258884 I-10.634517766497462 J-7.228426395939086
G1 X35.44390862944162 Y35.18781725888325 F1500
G3 X33.39593908629442 Y36.88324873096447 I-9.98984771573604 J-9.98984771573604 F1500
G3 X31.578680203045685 Y37.86294416243655 I-5.687817258883249 J-8.368020304568528
G3 X29.604060913705585 Y38.45431472081218 I-3.8730964467005076 J-9.347715736040609
G3 X26.956852791878173 Y38.70304568527919 I-2.6472081218274113 J-13.875634517766498
G3 X24.309644670050762 Y38.45431472081218 I0 J-14.126903553299492
G3 X22.33248730964467 Y37.86294416243655 I1.895939086294416 J-9.939086294416244
G3 X20.51776649746193 Y36.88324873096447 I3.8730964467005076 J-9.347715736040609
G3 X18.46954314720812 Y35.18781725888325 I7.941624365482234 J-11.685279187817258
G3 X16.774111675126903 Y33.13959390862944 I9.98984771573604 J-9.98984771573604
G3 X15.794416243654823 Y31.3248730964467 I8.368020304568528 J-5.687817258883249
G3 X15.20304568527919 Y29.347715736040605 I9.347715736040609 J-3.8730964467005076
G3 X14.954314720812183 Y26.700507614213194 I13.875634517766498 J-2.6472081218274113
G3 X15.20304568527919 Y24.05329949238579 I14.126903553299492 J0
G3 X15.794416243654823 Y22.076142131979694 I9.939086294416244 J1.895939086294416
G3 X16.774111675126903 Y20.261421319796952 I9.347715736040609 J3.8730964467005076
G3 X18.46954314720812 Y18.213197969543145 I11.685279187817258 J7.941624365482234
G3 X20.51776649746193 Y16.51776649746193 I9.98984771573604 J9.98984771573604
G3 X22.33248730964467 Y15.538071065989847 I5.687817258883249 J8.368020304568528
G3 X24.309644670050762 Y14.946700507614212 I3.8730964467005076 J9.347715736040609
G3 X26.956852791878173 Y14.69796954314721 I2.6472081218274113 J13.875634517766498
G3 X29.604060913705585 Y14.946700507614212 I0 J14.126903553299492
G3 X31.578680203045685 Y15.538071065989847 I-1.895939086294416 J9.939086294416244
G3 X33.39593908629442 Y16.51776649746193 I-3.8730964467005076 J9.347715736040609
G3 X35.444162436548226 Y18.213197969543145 I-7.941624365482234 J11.685279187817258
G3 X37.13959390862944 Y20.261421319796952 I-9.98984771573604 J9.98984771573604
G3 X38.119289340101524 Y22.076142131979694 I-8.368020304568528 J5.687817258883249
G3 X38.70812182741117 Y24.05329949238579 I-9.347715736040609 J3.8730964467005076
G3 X38.95939086294416 Y26.700507614213194 I-13.875634517766498 J2.6472081218274113
G3 X38.70812182741117 Y29.347715736040605 I-14.126903553299492 J0
G3 X38.119289340101524 Y31.3248730964467 I-9.939086294416244 J-1.895939086294416
G3 X37.13959390862944 Y33.13959390862944 I-9.347715736040609 J-3.8730964467005076
G3 X35.444162436548226 Y35.18781725888325 I-11.685279187817258 J-7.941624365482234
G1 X36.34035532994924 Y36.08451776649746 F1500
G3 X34.109137055837564 Y37.931472081218274 I-10.885786802030458 J-10.885786802030458 F1500
G3 X32.065989847715734 Y39.03299492385787 I-6.401015228426395 J-9.418781725888325
G3 X29.840101522842637 Y39.69796954314721 I-4.3578680203045685 J-10.52030456852792
G3 X26.956852791878173 Y39.97208121827411 I-2.883248730964467 J-15.121827411167512
G3 X24.071065989847718 Y39.69796954314721 I0 J-15.395939086294417
G3 X21.847715736040605 Y39.03299492385787 I2.1345177664974617 J-11.185279187817258
G3 X19.804568527918782 Y37.931472081218274 I4.3578680203045685 J-10.52030456852792
G3 X17.573604060913706 Y36.08375634517766 I8.652284263959391 J-12.733502538071066
G3 X15.725888324873097 Y33.85279187817259 I10.885786802030458 J-10.885786802030458
G3 X14.624365482233504 Y31.809644670050762 I9.418781725888325 J-6.401015228426395
G3 X13.956852791878172 Y29.583756345177665 I10.52030456852792 J-4.3578680203045685
G3 X13.685279187817258 Y26.700507614213194 I15.121827411167512 J-2.883248730964467
G3 X13.956852791878172 Y23.81472081218274 I15.395939086294417 J0
G3 X14.624365482233504 Y21.591370558375633 I11.185279187817258 J2.1345177664974617
G3 X15.725888324873097 Y19.548223350253807 I10.52030456852792 J4.3578680203045685
G3 X17.573604060913706 Y17.317258883248734 I12.733502538071066 J8.652284263959391
G3 X19.804568527918782 Y15.469543147208123 I10.885786802030458 J10.885786802030458
G3 X21.847715736040605 Y14.368020304568528 I6.401015228426395 J9.418781725888325
G3 X24.071065989847718 Y13.703045685279188 I4.3578680203045685 J10.52030456852792
G3 X26.956852791878173 Y13.428934010152284 I2.883248730964467 J15.121827411167512
G3 X29.840101522842637 Y13.703045685279188 I0 J15.395939086294417
G3 X32.065989847715734 Y14.368020304568528 I-2.1345177664974617 J11.185279187817258
G3 X34.109137055837564 Y15.469543147208123 I-4.3578680203045685 J10.52030456852792
G3 X36.34010152284264 Y17.317258883248734 I-8.652284263959391 J12.733502538071066
G3 X38.18781725888325 Y19.548223350253807 I-10.885786802030458 J10.885786802030458
G3 X39.28934010152284 Y21.591370558375633 I-9.418781725888325 J6.401015228426395
G3 X39.95431472081218 Y23.81472081218274 I-10.52030456852792 J4.3578680203045685
G3 X40.22842639593908 Y26.700507614213194 I-15.121827411167512 J2.883248730964467
G3 X39.95431472081218 Y29.583756345177665 I-15.395939086294417 J0
G3 X39.28934010152284 Y31.809644670050762 I-11.185279187817258 J-2.1345177664974617
G3 X38.18781725888325 Y33.85279187817259 I-10.52030456852792 J-4.3578680203045685
G3 X36.34010152284264 Y36.08375634517766 I-12.733502538071066 J-8.652284263959391
G1 X37.23705583756345 Y36.98096446700507 F1500
G3 X34.81979695431472 Y38.97969543147208 I-11.781725888324871 J-11.781725888324871 F1500
G3 X32.5507614213198 Y40.20558375634518 I-7.114213197969543 J-10.467005076142133
G3 X30.078680203045685 Y40.944162436548226 I-4.842639593908629 J-11.692893401015228
G3 X26.956852791878173 Y41.23857868020305 I-3.1218274111675126 J-16.368020304568528
G3 X23.83502538071066 Y40.944162436548226 I0 J-16.66243654822335
G3 X21.36294416243655 Y40.20558375634518 I2.3705583756345177 J-12.431472081218274
G3 X19.091370558375637 Y38.97969543147208 I4.842639593908629 J-11.692893401015228
G3 X16.6751269035533 Y36.982233502538065 I9.365482233502538 J-13.781725888324875
G3 X14.677664974619288 Y34.56345177664974 I11.781725888324871 J-11.781725888324871
G3 X13.451776649746192 Y32.29441624365482 I10.467005076142133 J-7.114213197969543
G3 X12.713197969543145 Y29.82233502538071 I11.692893401015228 J-4.842639593908629
G3 X12.416243654822335 Y26.700507614213194 I16.368020304568528 J-3.1218274111675126
G3 X12.713197969543145 Y23.578680203045685 I16.66243654822335 J0
G3 X13.451776649746192 Y21.106598984771573 I12.431472081218274 J2.3705583756345177
G3 X14.677664974619288 Y18.83502538071066 I11.692893401015228 J4.842639593908629
G3 X16.6751269035533 Y16.418781725888326 I13.781725888324875 J9.365482233502538
G3 X19.091370558375637 Y14.421319796954315 I11.781725888324871 J11.781725888324871
G3 X21.36294416243655 Y13.195431472081218 I7.114213197969543 J10.467005076142133
G3 X23.83502538071066 Y12.456852791878173 I4.842639593908629 J11.692893401015228
G3 X26.956852791878173 Y12.16243654822335 I3.1218274111675126 J16.368020304568528
G3 X30.078680203045685 Y12.456852791878173 I0 J16.66243654822335
G3 X32.5507614213198 Y13.195431472081218 I-2.3705583756345177 J12.431472081218274
G3 X34.81979695431472 Y14.421319796954315 I-4.842639593908629 J11.692893401015228
G3 X37.236040609137056 Y16.418781725888326 I-9.365482233502538 J13.781725888324875
G3 X39.236040609137056 Y18.83502538071066 I-11.781725888324871 J11.781725888324871
G3 X40.461928934010146 Y21.106598984771573 I-10.467005076142133 J7.114213197969543
G3 X41.200507614213194 Y23.578680203045685 I-11.692893401015228 J4.842639593908629
G3 X41.49492385786802 Y26.700507614213194 I-16.368020304568528 J3.1218274111675126
G3 X41.200507614213194 Y29.82233502538071 I-16.66243654822335 J0
G3 X40.461928934010146 Y32.29441624365482 I-12.431472081218274 J-2.3705583756345177
G3 X39.236040609137056 Y34.56345177664974 I-11.692893401015228 J-4.842639593908629
G3 X37.236040609137056 Y36.982233502538065 I-13.781725888324875 J-9.365482233502538
G1 X38.13350253807106 Y37.877664974619286 F1500
G3 X35.53299492385787 Y40.02791878172589 I-12.680203045685278 J-12.680203045685278 F1500
G3 X33.03553299492386 Y41.3756345177665 I-7.824873096446701 J-11.515228426395938
G3 X30.31725888324873 Y42.190355329949234 I-5.32741116751269 J-12.862944162436548
G3 X26.956852791878173 Y42.50761421319797 I-3.3604060913705585 J-17.614213197969544
G3 X23.596446700507613 Y42.190355329949234 I0 J-17.931472081218274
G3 X20.878172588832488 Y41.3756345177665 I2.6091370558375635 J-13.67766497461929
G3 X18.378172588832488 Y40.02791878172589 I5.32741116751269 J-12.862944162436548
G3 X15.779187817258883 Y37.878172588832484 I10.078680203045685 J-14.829949238578681
G3 X13.626903553299492 Y35.276649746192895 I12.680203045685278 J-12.680203045685278
G3 X12.279187817258883 Y32.77918781725888 I11.515228426395938 J-7.824873096446701
G3 X11.467005076142131 Y30.060913705583758 I12.862944162436548 J-5.32741116751269
G3 X11.149746192893401 Y26.700507614213194 I17.614213197969544 J-3.3604060913705585
G3 X11.467005076142131 Y23.34010152284264 I17.931472081218274 J0
G3 X12.279187817258883 Y20.621827411167516 I13.67766497461929 J2.6091370558375635
G3 X13.626903553299492 Y18.1243654822335 I12.862944162436548 J5.32741116751269
G3 X15.779187817258883 Y15.522842639593907 I14.829949238578681 J10.078680203045685
G3 X18.378172588832488 Y13.373096446700508 I12.680203045685278 J12.680203045685278
G3 X20.878172588832488 Y12.025380710659899 I7.824873096446701 J11.515228426395938
G3 X23.596446700507613 Y11.210659898477157 I5.32741116751269 J12.862944162436548
G3 X26.956852791878173 Y10.893401015228426 I3.3604060913705585 J17.614213197969544
G3 X30.31725888324873 Y11.210659898477157 I0 J17.931472081218274
G3 X33.03553299492386 Y12.025380710659899 I-2.6091370558375635 J13.67766497461929
G3 X35.53299492385787 Y13.373096446700508 I-5.32741116751269 J12.862944162436548
G3 X38.13451776649746 Y15.522842639593907 I-10.078680203045685 J14.829949238578681
G3 X40.28426395939086 Y18.1243654822335 I-12.680203045685278 J12.680203045685278
G3 X41.631979695431475 Y20.621827411167516 I-11.515228426395938 J7.824873096446701
G3 X42.44670050761421 Y23.34010152284264 I-12.862944162436548 J5.32741116751269
G3 X42.76395939086294 Y26.700507614213194 I-17.614213197969544 J3.3604060913705585
G3 X42.44670050761421 Y30.060913705583758 I-17.931472081218274 J0
G3 X41.631979695431475 Y32.77918781725888 I-13.67766497461929 J-2.6091370558375635
G3 X40.28426395939086 Y35.276649746192895 I-12.862944162436548 J-5.32741116751269
G3 X38.13451776649746 Y37.878172588832484 I-14.829949238578681 J-10.078680203045685
G1 X39.030203045685276 Y38.7741116751269 F1500
G3 X36.246192893401016 Y41.078680203045685 I-13.576142131979696 J-13.576142131979696 F1500
G3 X33.52030456852792 Y42.54822335025381 I-8.538071065989847 J-12.563451776649746
G3 X30.55329949238579 Y43.43654822335026 I-5.812182741116752 J-14.035532994923859
G3 X26.956852791878173 Y43.7741116751269 I-3.596446700507614 J-18.85786802030457
G3 X23.36040609137056 Y43.43654822335026 I0 J-19.19796954314721
G3 X20.390862944162436 Y42.54822335025381 I2.845177664974619 J-14.921319796954315
G3 X17.66751269035533 Y41.078680203045685 I5.812182741116752 J-14.035532994923859
G3 X14.883248730964468 Y38.7741116751269 I10.791878172588834 J-15.878172588832486
G3 X12.578680203045685 Y35.98984771573604 I13.576142131979696 J-13.576142131979696
G3 X11.109137055837564 Y33.263959390862944 I12.563451776649746 J-8.538071065989847
G3 X10.220812182741117 Y30.296954314720814 I14.035532994923859 J-5.812182741116752
G3 X9.880710659898478 Y26.700507614213194 I18.85786802030457 J-3.596446700507614
G3 X10.220812182741117 Y23.10406091370558 I19.19796954314721 J0
G3 X11.109137055837564 Y20.13705583756345 I14.921319796954315 J2.845177664974619
G3 X12.578680203045685 Y17.411167512690355 I14.035532994923859 J5.812182741116752
G3 X14.883248730964468 Y14.626903553299492 I15.878172588832486 J10.791878172588834
G3 X17.66751269035533 Y12.32233502538071 I13.576142131979696 J13.576142131979696
G3 X20.390862944162436 Y10.852791878172589 I8.538071065989847 J12.563451776649746
G3 X23.36040609137056 Y9.964467005076141 I5.812182741116752 J14.035532994923859
G3 X26.956852791878173 Y9.624365482233502 I3.596446700507614 J18.85786802030457
G3 X30.55329949238579 Y9.964467005076141 I0 J19.19796954314721
G3 X33.52030456852792 Y10.852791878172589 I-2.845177664974619 J14.921319796954315
